!Project:
!Author:
!Date:07/14/2020 08:15:31

MODULE ODC_hotwire

   VAR speeddata cur_vel := [200.0, 200.0, 1000.0, 1000.0];
   PERS zonedata cur_zone := [FALSE, 1, 1, 250, 1, 200, 1];
   PERS wobjdata cur_wobj := [FALSE, TRUE, "", [[0.0, 0.0, 0.0], [1.0, 0.0, 0.0, 0.0]], [[0, 0, 0], [1, 0, 0 ,0]]];
   PERS tooldata cur_tool;

   PROC main()
       ! >>> start header
       cur_tool := Carbon_hotwire;
       ConfL \Off;
       ConfJ \Off;
       ! Crank up the path resolution to increase toolpath precision
       PathResol 50;
       AccSet 100, 50;
       aligner1;
       aligner2;

       Start_Cut;

       brep1;
       brep2;

       End_Cut;
   ENDPROC

   PROC aligner1()

       MoveL [[-600.0061, 2608.6770, -1278.0000],[ 0.00000000, 1.00000000, 0.00000000, 0.00000000], [1,-1,-1,0], [9E+09, 9E+09, 9E+09, 9E+09, 9E+09, 9E+09]], cur_vel, cur_zone, cur_tool\WObj:=cur_wobj;
       MoveL [[-600.0061, 2608.6770, -1328.0000],[ 0.00000000, 1.00000000, 0.00000000, 0.00000000], [1,-1,-1,0], [9E+09, 9E+09, 9E+09, 9E+09, 9E+09, 9E+09]], cur_vel, cur_zone, cur_tool\WObj:=cur_wobj;
       Stop \AllMoveTasks;
       MoveL [[-600.0061, 2608.6770, -1278.0000],[ 0.00000000, 1.00000000, 0.00000000, 0.00000000], [1,-1,-1,0], [9E+09, 9E+09, 9E+09, 9E+09, 9E+09, 9E+09]], cur_vel, cur_zone, cur_tool\WObj:=cur_wobj;

   ENDPROC

   PROC aligner2()

       MoveL [[-0.0061, 2533.6770, -1278.0000],[ 0.00000000, 0.70710678, -0.70710678, 0.00000000], [1,-1,0,0], [9E+09, 9E+09, 9E+09, 9E+09, 9E+09, 9E+09]], cur_vel, cur_zone, cur_tool\WObj:=cur_wobj;
       MoveL [[-0.0061, 2533.6770, -1328.0000],[ 0.00000000, 0.70710678, -0.70710678, 0.00000000], [1,-1,0,0], [9E+09, 9E+09, 9E+09, 9E+09, 9E+09, 9E+09]], cur_vel, cur_zone, cur_tool\WObj:=cur_wobj;
       Stop \AllMoveTasks;
       MoveL [[-0.0061, 2533.6770, -1278.0000],[ 0.00000000, 0.70710678, -0.70710678, 0.00000000], [1,-1,0,0], [9E+09, 9E+09, 9E+09, 9E+09, 9E+09, 9E+09]], cur_vel, cur_zone, cur_tool\WObj:=cur_wobj;

   ENDPROC

   PROC brep1()

       ! Processing surface number: 1

       MoveL [[595.4683, 2609.5862, -1265.2457],[ 0.02831795, 0.98681874, -0.15926699, -0.00457036], [0,0,-1,0], [9E+09, 9E+09, 9E+09, 9E+09, 9E+09, 9E+09]], cur_vel, cur_zone, cur_tool\WObj:=cur_wobj;
       MoveL [[595.4683, 2609.5862, -1270.2457],[ 0.02831795, 0.98681874, -0.15926699, -0.00457036], [0,0,-1,0], [9E+09, 9E+09, 9E+09, 9E+09, 9E+09, 9E+09]], cur_vel, cur_zone, cur_tool\WObj:=cur_wobj;
       MoveL [[595.4683, 2609.5862, -1275.2457],[ 0.02831795, 0.98681874, -0.15926699, -0.00457036], [0,0,-1,0], [9E+09, 9E+09, 9E+09, 9E+09, 9E+09, 9E+09]], cur_vel, cur_zone, cur_tool\WObj:=cur_wobj;
       MoveL [[595.4683, 2609.5862, -1280.2457],[ 0.02831795, 0.98681874, -0.15926699, -0.00457036], [0,0,-1,0], [9E+09, 9E+09, 9E+09, 9E+09, 9E+09, 9E+09]], cur_vel, cur_zone, cur_tool\WObj:=cur_wobj;
       MoveL [[595.4683, 2609.5862, -1285.2457],[ 0.02831795, 0.98681874, -0.15926699, -0.00457036], [0,0,-1,0], [9E+09, 9E+09, 9E+09, 9E+09, 9E+09, 9E+09]], cur_vel, cur_zone, cur_tool\WObj:=cur_wobj;
       MoveL [[595.4683, 2609.5862, -1290.2457],[ 0.02831795, 0.98681874, -0.15926699, -0.00457036], [0,0,-1,0], [9E+09, 9E+09, 9E+09, 9E+09, 9E+09, 9E+09]], cur_vel, cur_zone, cur_tool\WObj:=cur_wobj;
       MoveL [[595.4683, 2609.5862, -1295.2457],[ 0.02831795, 0.98681874, -0.15926699, -0.00457036], [0,0,-1,0], [9E+09, 9E+09, 9E+09, 9E+09, 9E+09, 9E+09]], cur_vel, cur_zone, cur_tool\WObj:=cur_wobj;
       MoveL [[595.4683, 2609.5862, -1300.2457],[ 0.02831795, 0.98681874, -0.15926699, -0.00457036], [0,0,-1,0], [9E+09, 9E+09, 9E+09, 9E+09, 9E+09, 9E+09]], cur_vel, cur_zone, cur_tool\WObj:=cur_wobj;
       MoveL [[595.4683, 2609.5862, -1305.2457],[ 0.02831795, 0.98681874, -0.15926699, -0.00457036], [0,0,-1,0], [9E+09, 9E+09, 9E+09, 9E+09, 9E+09, 9E+09]], cur_vel, cur_zone, cur_tool\WObj:=cur_wobj;
       MoveL [[595.4683, 2609.5862, -1310.2457],[ 0.02831795, 0.98681874, -0.15926699, -0.00457036], [0,0,-1,0], [9E+09, 9E+09, 9E+09, 9E+09, 9E+09, 9E+09]], cur_vel, cur_zone, cur_tool\WObj:=cur_wobj;
       MoveL [[595.4683, 2609.5862, -1315.2457],[ 0.02831795, 0.98681874, -0.15926699, -0.00457036], [0,0,-1,0], [9E+09, 9E+09, 9E+09, 9E+09, 9E+09, 9E+09]], cur_vel, cur_zone, cur_tool\WObj:=cur_wobj;
       MoveL [[595.4683, 2609.5862, -1320.2457],[ 0.02831795, 0.98681874, -0.15926699, -0.00457036], [0,0,-1,0], [9E+09, 9E+09, 9E+09, 9E+09, 9E+09, 9E+09]], cur_vel, cur_zone, cur_tool\WObj:=cur_wobj;
       MoveL [[595.4683, 2609.5862, -1325.2457],[ 0.02831795, 0.98681874, -0.15926699, -0.00457036], [0,0,-1,0], [9E+09, 9E+09, 9E+09, 9E+09, 9E+09, 9E+09]], cur_vel, cur_zone, cur_tool\WObj:=cur_wobj;
       MoveL [[595.4683, 2609.5862, -1330.2457],[ 0.02831795, 0.98681874, -0.15926699, -0.00457036], [0,0,-1,0], [9E+09, 9E+09, 9E+09, 9E+09, 9E+09, 9E+09]], cur_vel, cur_zone, cur_tool\WObj:=cur_wobj;
       MoveL [[595.4683, 2609.5862, -1335.2457],[ 0.02831795, 0.98681874, -0.15926699, -0.00457036], [0,0,-1,0], [9E+09, 9E+09, 9E+09, 9E+09, 9E+09, 9E+09]], cur_vel, cur_zone, cur_tool\WObj:=cur_wobj;
       MoveL [[595.4683, 2609.5862, -1340.2457],[ 0.02831795, 0.98681874, -0.15926699, -0.00457036], [0,0,-1,0], [9E+09, 9E+09, 9E+09, 9E+09, 9E+09, 9E+09]], cur_vel, cur_zone, cur_tool\WObj:=cur_wobj;
       MoveL [[595.4683, 2609.5862, -1345.2457],[ 0.02831795, 0.98681874, -0.15926699, -0.00457036], [0,0,-1,0], [9E+09, 9E+09, 9E+09, 9E+09, 9E+09, 9E+09]], cur_vel, cur_zone, cur_tool\WObj:=cur_wobj;
       MoveL [[595.4683, 2609.5862, -1350.2457],[ 0.02831795, 0.98681874, -0.15926699, -0.00457036], [0,0,-1,0], [9E+09, 9E+09, 9E+09, 9E+09, 9E+09, 9E+09]], cur_vel, cur_zone, cur_tool\WObj:=cur_wobj;
       MoveL [[595.4683, 2609.5862, -1355.2457],[ 0.02831795, 0.98681874, -0.15926699, -0.00457036], [0,0,-1,0], [9E+09, 9E+09, 9E+09, 9E+09, 9E+09, 9E+09]], cur_vel, cur_zone, cur_tool\WObj:=cur_wobj;
       MoveL [[595.4683, 2609.5862, -1360.2457],[ 0.02831795, 0.98681874, -0.15926699, -0.00457036], [0,0,-1,0], [9E+09, 9E+09, 9E+09, 9E+09, 9E+09, 9E+09]], cur_vel, cur_zone, cur_tool\WObj:=cur_wobj;
       MoveL [[595.4683, 2609.5862, -1365.2457],[ 0.02831795, 0.98681874, -0.15926699, -0.00457036], [0,0,-1,0], [9E+09, 9E+09, 9E+09, 9E+09, 9E+09, 9E+09]], cur_vel, cur_zone, cur_tool\WObj:=cur_wobj;
       MoveL [[595.4683, 2609.5862, -1370.2457],[ 0.02831795, 0.98681874, -0.15926699, -0.00457036], [0,0,-1,0], [9E+09, 9E+09, 9E+09, 9E+09, 9E+09, 9E+09]], cur_vel, cur_zone, cur_tool\WObj:=cur_wobj;
       MoveL [[595.4683, 2609.5862, -1375.2457],[ 0.02831795, 0.98681874, -0.15926699, -0.00457036], [0,0,-1,0], [9E+09, 9E+09, 9E+09, 9E+09, 9E+09, 9E+09]], cur_vel, cur_zone, cur_tool\WObj:=cur_wobj;
       MoveL [[595.4683, 2609.5862, -1378.2457],[ 0.02831795, 0.98681874, -0.15926699, -0.00457036], [0,0,-1,0], [9E+09, 9E+09, 9E+09, 9E+09, 9E+09, 9E+09]], cur_vel, cur_zone, cur_tool\WObj:=cur_wobj;

       ! Processing surface number: 2

       MoveL [[592.3871, 2610.3739, -1382.1039],[ 0.02831795, 0.98681874, -0.15926699, -0.00457036], [0,0,-1,0], [9E+09, 9E+09, 9E+09, 9E+09, 9E+09, 9E+09]], cur_vel, cur_zone, cur_tool\WObj:=cur_wobj;
       MoveL [[589.3059, 2611.1617, -1385.9621],[ 0.02831795, 0.98681874, -0.15926699, -0.00457036], [0,0,-1,0], [9E+09, 9E+09, 9E+09, 9E+09, 9E+09, 9E+09]], cur_vel, cur_zone, cur_tool\WObj:=cur_wobj;
       MoveL [[586.2246, 2611.9494, -1389.8203],[ 0.02831795, 0.98681874, -0.15926699, -0.00457036], [0,0,-1,0], [9E+09, 9E+09, 9E+09, 9E+09, 9E+09, 9E+09]], cur_vel, cur_zone, cur_tool\WObj:=cur_wobj;
       MoveL [[583.1434, 2612.7371, -1393.6784],[ 0.02831795, 0.98681874, -0.15926699, -0.00457036], [0,0,-1,0], [9E+09, 9E+09, 9E+09, 9E+09, 9E+09, 9E+09]], cur_vel, cur_zone, cur_tool\WObj:=cur_wobj;
       MoveL [[580.0621, 2613.5248, -1397.5366],[ 0.02831795, 0.98681874, -0.15926699, -0.00457036], [0,0,-1,0], [9E+09, 9E+09, 9E+09, 9E+09, 9E+09, 9E+09]], cur_vel, cur_zone, cur_tool\WObj:=cur_wobj;
       MoveL [[576.9809, 2614.3125, -1401.3948],[ 0.02831795, 0.98681874, -0.15926699, -0.00457036], [0,0,-1,0], [9E+09, 9E+09, 9E+09, 9E+09, 9E+09, 9E+09]], cur_vel, cur_zone, cur_tool\WObj:=cur_wobj;
       MoveL [[573.8997, 2615.1003, -1405.2529],[ 0.02831795, 0.98681874, -0.15926699, -0.00457036], [0,0,-1,0], [9E+09, 9E+09, 9E+09, 9E+09, 9E+09, 9E+09]], cur_vel, cur_zone, cur_tool\WObj:=cur_wobj;
       MoveL [[570.8184, 2615.8880, -1409.1111],[ 0.02831795, 0.98681874, -0.15926699, -0.00457036], [0,0,-1,0], [9E+09, 9E+09, 9E+09, 9E+09, 9E+09, 9E+09]], cur_vel, cur_zone, cur_tool\WObj:=cur_wobj;
       MoveL [[567.7372, 2616.6757, -1412.9693],[ 0.02831795, 0.98681874, -0.15926699, -0.00457036], [0,0,-1,0], [9E+09, 9E+09, 9E+09, 9E+09, 9E+09, 9E+09]], cur_vel, cur_zone, cur_tool\WObj:=cur_wobj;
       MoveL [[564.6560, 2617.4634, -1416.8274],[ 0.02831795, 0.98681874, -0.15926699, -0.00457036], [0,0,-1,0], [9E+09, 9E+09, 9E+09, 9E+09, 9E+09, 9E+09]], cur_vel, cur_zone, cur_tool\WObj:=cur_wobj;
       MoveL [[561.5747, 2618.2512, -1420.6856],[ 0.02831795, 0.98681874, -0.15926699, -0.00457036], [0,0,-1,0], [9E+09, 9E+09, 9E+09, 9E+09, 9E+09, 9E+09]], cur_vel, cur_zone, cur_tool\WObj:=cur_wobj;
       MoveL [[558.4935, 2619.0389, -1424.5438],[ 0.02831795, 0.98681874, -0.15926699, -0.00457036], [0,0,-1,0], [9E+09, 9E+09, 9E+09, 9E+09, 9E+09, 9E+09]], cur_vel, cur_zone, cur_tool\WObj:=cur_wobj;
       MoveL [[555.4122, 2619.8266, -1428.4020],[ 0.02831795, 0.98681874, -0.15926699, -0.00457036], [0,0,-1,0], [9E+09, 9E+09, 9E+09, 9E+09, 9E+09, 9E+09]], cur_vel, cur_zone, cur_tool\WObj:=cur_wobj;
       MoveL [[552.3310, 2620.6143, -1432.2601],[ 0.02831795, 0.98681874, -0.15926699, -0.00457036], [0,0,-1,0], [9E+09, 9E+09, 9E+09, 9E+09, 9E+09, 9E+09]], cur_vel, cur_zone, cur_tool\WObj:=cur_wobj;
       MoveL [[549.2498, 2621.4020, -1436.1183],[ 0.02831795, 0.98681874, -0.15926699, -0.00457036], [0,0,-1,0], [9E+09, 9E+09, 9E+09, 9E+09, 9E+09, 9E+09]], cur_vel, cur_zone, cur_tool\WObj:=cur_wobj;
       MoveL [[546.1685, 2622.1898, -1439.9765],[ 0.02831795, 0.98681874, -0.15926699, -0.00457036], [0,0,-1,0], [9E+09, 9E+09, 9E+09, 9E+09, 9E+09, 9E+09]], cur_vel, cur_zone, cur_tool\WObj:=cur_wobj;
       MoveL [[543.0873, 2622.9775, -1443.8346],[ 0.02831795, 0.98681874, -0.15926699, -0.00457036], [0,0,-1,0], [9E+09, 9E+09, 9E+09, 9E+09, 9E+09, 9E+09]], cur_vel, cur_zone, cur_tool\WObj:=cur_wobj;
       MoveL [[540.0061, 2623.7652, -1447.6928],[ 0.02831795, 0.98681874, -0.15926699, -0.00457036], [0,0,-1,0], [9E+09, 9E+09, 9E+09, 9E+09, 9E+09, 9E+09]], cur_vel, cur_zone, cur_tool\WObj:=cur_wobj;
       MoveL [[536.9248, 2624.5529, -1451.5510],[ 0.02831795, 0.98681874, -0.15926699, -0.00457036], [0,0,-1,0], [9E+09, 9E+09, 9E+09, 9E+09, 9E+09, 9E+09]], cur_vel, cur_zone, cur_tool\WObj:=cur_wobj;
       MoveL [[533.8436, 2625.3407, -1455.4091],[ 0.02831795, 0.98681874, -0.15926699, -0.00457036], [0,0,-1,0], [9E+09, 9E+09, 9E+09, 9E+09, 9E+09, 9E+09]], cur_vel, cur_zone, cur_tool\WObj:=cur_wobj;
       MoveL [[530.7624, 2626.1284, -1459.2673],[ 0.02831795, 0.98681874, -0.15926699, -0.00457036], [0,0,-1,0], [9E+09, 9E+09, 9E+09, 9E+09, 9E+09, 9E+09]], cur_vel, cur_zone, cur_tool\WObj:=cur_wobj;
       MoveL [[527.6811, 2626.9161, -1463.1255],[ 0.02831795, 0.98681874, -0.15926699, -0.00457036], [0,0,-1,0], [9E+09, 9E+09, 9E+09, 9E+09, 9E+09, 9E+09]], cur_vel, cur_zone, cur_tool\WObj:=cur_wobj;
       MoveL [[524.5999, 2627.7038, -1466.9837],[ 0.02831795, 0.98681874, -0.15926699, -0.00457036], [0,0,-1,0], [9E+09, 9E+09, 9E+09, 9E+09, 9E+09, 9E+09]], cur_vel, cur_zone, cur_tool\WObj:=cur_wobj;
       MoveL [[521.5186, 2628.4916, -1470.8418],[ 0.02831795, 0.98681874, -0.15926699, -0.00457036], [0,0,-1,0], [9E+09, 9E+09, 9E+09, 9E+09, 9E+09, 9E+09]], cur_vel, cur_zone, cur_tool\WObj:=cur_wobj;
       MoveL [[518.4374, 2629.2793, -1474.7000],[ 0.02831795, 0.98681874, -0.15926699, -0.00457036], [0,0,-1,0], [9E+09, 9E+09, 9E+09, 9E+09, 9E+09, 9E+09]], cur_vel, cur_zone, cur_tool\WObj:=cur_wobj;
       MoveL [[515.3562, 2630.0670, -1478.5582],[ 0.02831795, 0.98681874, -0.15926699, -0.00457036], [0,0,-1,0], [9E+09, 9E+09, 9E+09, 9E+09, 9E+09, 9E+09]], cur_vel, cur_zone, cur_tool\WObj:=cur_wobj;
       MoveL [[512.2749, 2630.8547, -1482.4163],[ 0.02831795, 0.98681874, -0.15926699, -0.00457036], [0,0,-1,0], [9E+09, 9E+09, 9E+09, 9E+09, 9E+09, 9E+09]], cur_vel, cur_zone, cur_tool\WObj:=cur_wobj;
       MoveL [[509.1937, 2631.6424, -1486.2745],[ 0.02831795, 0.98681874, -0.15926699, -0.00457036], [0,0,-1,0], [9E+09, 9E+09, 9E+09, 9E+09, 9E+09, 9E+09]], cur_vel, cur_zone, cur_tool\WObj:=cur_wobj;
       MoveL [[506.1125, 2632.4302, -1490.1327],[ 0.02831795, 0.98681874, -0.15926699, -0.00457036], [0,0,-1,0], [9E+09, 9E+09, 9E+09, 9E+09, 9E+09, 9E+09]], cur_vel, cur_zone, cur_tool\WObj:=cur_wobj;
       MoveL [[503.0312, 2633.2179, -1493.9908],[ 0.02831795, 0.98681874, -0.15926699, -0.00457036], [0,0,-1,0], [9E+09, 9E+09, 9E+09, 9E+09, 9E+09, 9E+09]], cur_vel, cur_zone, cur_tool\WObj:=cur_wobj;
       MoveL [[499.9500, 2634.0056, -1497.8490],[ 0.02831795, 0.98681874, -0.15926699, -0.00457036], [0,0,-1,0], [9E+09, 9E+09, 9E+09, 9E+09, 9E+09, 9E+09]], cur_vel, cur_zone, cur_tool\WObj:=cur_wobj;
       MoveL [[496.8688, 2634.7933, -1501.7072],[ 0.02831795, 0.98681874, -0.15926699, -0.00457036], [0,0,-1,0], [9E+09, 9E+09, 9E+09, 9E+09, 9E+09, 9E+09]], cur_vel, cur_zone, cur_tool\WObj:=cur_wobj;
       MoveL [[493.7875, 2635.5811, -1505.5653],[ 0.02831795, 0.98681874, -0.15926699, -0.00457036], [0,0,-1,0], [9E+09, 9E+09, 9E+09, 9E+09, 9E+09, 9E+09]], cur_vel, cur_zone, cur_tool\WObj:=cur_wobj;
       MoveL [[490.7063, 2636.3688, -1509.4235],[ 0.02831795, 0.98681874, -0.15926699, -0.00457036], [0,0,-1,0], [9E+09, 9E+09, 9E+09, 9E+09, 9E+09, 9E+09]], cur_vel, cur_zone, cur_tool\WObj:=cur_wobj;
       MoveL [[487.6250, 2637.1565, -1513.2817],[ 0.02831795, 0.98681874, -0.15926699, -0.00457036], [0,0,-1,0], [9E+09, 9E+09, 9E+09, 9E+09, 9E+09, 9E+09]], cur_vel, cur_zone, cur_tool\WObj:=cur_wobj;
       MoveL [[486.0390, 2637.5620, -1515.2676],[ 0.02831795, 0.98681874, -0.15926699, -0.00457036], [0,0,-1,0], [9E+09, 9E+09, 9E+09, 9E+09, 9E+09, 9E+09]], cur_vel, cur_zone, cur_tool\WObj:=cur_wobj;

       ! Processing surface number: 3

       MoveL [[491.0390, 2637.5620, -1515.2676],[ 0.02831795, 0.98681874, -0.15926699, -0.00457036], [0,0,-1,0], [9E+09, 9E+09, 9E+09, 9E+09, 9E+09, 9E+09]], cur_vel, cur_zone, cur_tool\WObj:=cur_wobj;
       MoveL [[496.0390, 2637.5620, -1515.2676],[ 0.02831795, 0.98681874, -0.15926699, -0.00457036], [0,0,-1,0], [9E+09, 9E+09, 9E+09, 9E+09, 9E+09, 9E+09]], cur_vel, cur_zone, cur_tool\WObj:=cur_wobj;
       MoveL [[501.0390, 2637.5620, -1515.2676],[ 0.02831795, 0.98681874, -0.15926699, -0.00457036], [0,0,-1,0], [9E+09, 9E+09, 9E+09, 9E+09, 9E+09, 9E+09]], cur_vel, cur_zone, cur_tool\WObj:=cur_wobj;
       MoveL [[506.0390, 2637.5620, -1515.2676],[ 0.02831795, 0.98681874, -0.15926699, -0.00457036], [0,0,-1,0], [9E+09, 9E+09, 9E+09, 9E+09, 9E+09, 9E+09]], cur_vel, cur_zone, cur_tool\WObj:=cur_wobj;
       MoveL [[511.0390, 2637.5620, -1515.2676],[ 0.02831795, 0.98681874, -0.15926699, -0.00457036], [0,0,-1,0], [9E+09, 9E+09, 9E+09, 9E+09, 9E+09, 9E+09]], cur_vel, cur_zone, cur_tool\WObj:=cur_wobj;
       MoveL [[516.0390, 2637.5620, -1515.2676],[ 0.02831795, 0.98681874, -0.15926699, -0.00457036], [0,0,-1,0], [9E+09, 9E+09, 9E+09, 9E+09, 9E+09, 9E+09]], cur_vel, cur_zone, cur_tool\WObj:=cur_wobj;
       MoveL [[521.0390, 2637.5620, -1515.2676],[ 0.02831795, 0.98681874, -0.15926699, -0.00457036], [0,0,-1,0], [9E+09, 9E+09, 9E+09, 9E+09, 9E+09, 9E+09]], cur_vel, cur_zone, cur_tool\WObj:=cur_wobj;
       MoveL [[526.0390, 2637.5620, -1515.2676],[ 0.02831795, 0.98681874, -0.15926699, -0.00457036], [0,0,-1,0], [9E+09, 9E+09, 9E+09, 9E+09, 9E+09, 9E+09]], cur_vel, cur_zone, cur_tool\WObj:=cur_wobj;
       MoveL [[531.0390, 2637.5620, -1515.2676],[ 0.02831795, 0.98681874, -0.15926699, -0.00457036], [0,0,-1,0], [9E+09, 9E+09, 9E+09, 9E+09, 9E+09, 9E+09]], cur_vel, cur_zone, cur_tool\WObj:=cur_wobj;
       MoveL [[536.0390, 2637.5620, -1515.2676],[ 0.02831795, 0.98681874, -0.15926699, -0.00457036], [0,0,-1,0], [9E+09, 9E+09, 9E+09, 9E+09, 9E+09, 9E+09]], cur_vel, cur_zone, cur_tool\WObj:=cur_wobj;
       MoveL [[541.0390, 2637.5620, -1515.2676],[ 0.02831795, 0.98681874, -0.15926699, -0.00457036], [0,0,-1,0], [9E+09, 9E+09, 9E+09, 9E+09, 9E+09, 9E+09]], cur_vel, cur_zone, cur_tool\WObj:=cur_wobj;
       MoveL [[546.0390, 2637.5620, -1515.2676],[ 0.02831795, 0.98681874, -0.15926699, -0.00457036], [0,0,-1,0], [9E+09, 9E+09, 9E+09, 9E+09, 9E+09, 9E+09]], cur_vel, cur_zone, cur_tool\WObj:=cur_wobj;
       MoveL [[551.0390, 2637.5620, -1515.2676],[ 0.02831795, 0.98681874, -0.15926699, -0.00457036], [0,0,-1,0], [9E+09, 9E+09, 9E+09, 9E+09, 9E+09, 9E+09]], cur_vel, cur_zone, cur_tool\WObj:=cur_wobj;
       MoveL [[556.0390, 2637.5620, -1515.2676],[ 0.02831795, 0.98681874, -0.15926699, -0.00457036], [0,0,-1,0], [9E+09, 9E+09, 9E+09, 9E+09, 9E+09, 9E+09]], cur_vel, cur_zone, cur_tool\WObj:=cur_wobj;
       MoveL [[561.0390, 2637.5620, -1515.2676],[ 0.02831795, 0.98681874, -0.15926699, -0.00457036], [0,0,-1,0], [9E+09, 9E+09, 9E+09, 9E+09, 9E+09, 9E+09]], cur_vel, cur_zone, cur_tool\WObj:=cur_wobj;
       MoveL [[566.0390, 2637.5620, -1515.2676],[ 0.02831795, 0.98681874, -0.15926699, -0.00457036], [0,0,-1,0], [9E+09, 9E+09, 9E+09, 9E+09, 9E+09, 9E+09]], cur_vel, cur_zone, cur_tool\WObj:=cur_wobj;
       MoveL [[571.0390, 2637.5620, -1515.2676],[ 0.02831795, 0.98681874, -0.15926699, -0.00457036], [0,0,-1,0], [9E+09, 9E+09, 9E+09, 9E+09, 9E+09, 9E+09]], cur_vel, cur_zone, cur_tool\WObj:=cur_wobj;
       MoveL [[576.0390, 2637.5620, -1515.2676],[ 0.02831795, 0.98681874, -0.15926699, -0.00457036], [0,0,-1,0], [9E+09, 9E+09, 9E+09, 9E+09, 9E+09, 9E+09]], cur_vel, cur_zone, cur_tool\WObj:=cur_wobj;
       MoveL [[581.0390, 2637.5620, -1515.2676],[ 0.02831795, 0.98681874, -0.15926699, -0.00457036], [0,0,-1,0], [9E+09, 9E+09, 9E+09, 9E+09, 9E+09, 9E+09]], cur_vel, cur_zone, cur_tool\WObj:=cur_wobj;
       MoveL [[586.0390, 2637.5620, -1515.2676],[ 0.02831795, 0.98681874, -0.15926699, -0.00457036], [0,0,-1,0], [9E+09, 9E+09, 9E+09, 9E+09, 9E+09, 9E+09]], cur_vel, cur_zone, cur_tool\WObj:=cur_wobj;
       MoveL [[591.0390, 2637.5620, -1515.2676],[ 0.02831795, 0.98681874, -0.15926699, -0.00457036], [0,0,-1,0], [9E+09, 9E+09, 9E+09, 9E+09, 9E+09, 9E+09]], cur_vel, cur_zone, cur_tool\WObj:=cur_wobj;
       MoveL [[596.0390, 2637.5620, -1515.2676],[ 0.02831795, 0.98681874, -0.15926699, -0.00457036], [0,0,-1,0], [9E+09, 9E+09, 9E+09, 9E+09, 9E+09, 9E+09]], cur_vel, cur_zone, cur_tool\WObj:=cur_wobj;
       MoveL [[601.0390, 2637.5620, -1515.2676],[ 0.02831795, 0.98681874, -0.15926699, -0.00457036], [0,0,-1,0], [9E+09, 9E+09, 9E+09, 9E+09, 9E+09, 9E+09]], cur_vel, cur_zone, cur_tool\WObj:=cur_wobj;
       MoveL [[606.0390, 2637.5620, -1515.2676],[ 0.02831795, 0.98681874, -0.15926699, -0.00457036], [0,0,-1,0], [9E+09, 9E+09, 9E+09, 9E+09, 9E+09, 9E+09]], cur_vel, cur_zone, cur_tool\WObj:=cur_wobj;
       MoveL [[611.0390, 2637.5620, -1515.2676],[ 0.02831795, 0.98681874, -0.15926699, -0.00457036], [0,0,-1,0], [9E+09, 9E+09, 9E+09, 9E+09, 9E+09, 9E+09]], cur_vel, cur_zone, cur_tool\WObj:=cur_wobj;
       MoveL [[616.0390, 2637.5620, -1515.2676],[ 0.02831795, 0.98681874, -0.15926699, -0.00457036], [0,0,-1,0], [9E+09, 9E+09, 9E+09, 9E+09, 9E+09, 9E+09]], cur_vel, cur_zone, cur_tool\WObj:=cur_wobj;
       MoveL [[621.0390, 2637.5620, -1515.2676],[ 0.02831795, 0.98681874, -0.15926699, -0.00457036], [0,0,-1,0], [9E+09, 9E+09, 9E+09, 9E+09, 9E+09, 9E+09]], cur_vel, cur_zone, cur_tool\WObj:=cur_wobj;
       MoveL [[626.0390, 2637.5620, -1515.2676],[ 0.02831795, 0.98681874, -0.15926699, -0.00457036], [0,0,-1,0], [9E+09, 9E+09, 9E+09, 9E+09, 9E+09, 9E+09]], cur_vel, cur_zone, cur_tool\WObj:=cur_wobj;
       MoveL [[631.0390, 2637.5620, -1515.2676],[ 0.02831795, 0.98681874, -0.15926699, -0.00457036], [0,0,-1,0], [9E+09, 9E+09, 9E+09, 9E+09, 9E+09, 9E+09]], cur_vel, cur_zone, cur_tool\WObj:=cur_wobj;
       MoveL [[636.0390, 2637.5620, -1515.2676],[ 0.02831795, 0.98681874, -0.15926699, -0.00457036], [0,0,-1,0], [9E+09, 9E+09, 9E+09, 9E+09, 9E+09, 9E+09]], cur_vel, cur_zone, cur_tool\WObj:=cur_wobj;
       MoveL [[638.0390, 2637.5620, -1515.2676],[ 0.02831795, 0.98681874, -0.15926699, -0.00457036], [0,0,-1,0], [9E+09, 9E+09, 9E+09, 9E+09, 9E+09, 9E+09]], cur_vel, cur_zone, cur_tool\WObj:=cur_wobj;

       ! Processing surface number: 4

       MoveL [[638.0390, 2637.5620, -1510.2676],[ 0.02831795, 0.98681874, -0.15926699, -0.00457036], [0,0,-1,0], [9E+09, 9E+09, 9E+09, 9E+09, 9E+09, 9E+09]], cur_vel, cur_zone, cur_tool\WObj:=cur_wobj;
       MoveL [[638.0390, 2637.5620, -1505.2676],[ 0.02831795, 0.98681874, -0.15926699, -0.00457036], [0,0,-1,0], [9E+09, 9E+09, 9E+09, 9E+09, 9E+09, 9E+09]], cur_vel, cur_zone, cur_tool\WObj:=cur_wobj;
       MoveL [[638.0390, 2637.5620, -1500.2676],[ 0.02831795, 0.98681874, -0.15926699, -0.00457036], [0,0,-1,0], [9E+09, 9E+09, 9E+09, 9E+09, 9E+09, 9E+09]], cur_vel, cur_zone, cur_tool\WObj:=cur_wobj;
       MoveL [[638.0390, 2637.5620, -1495.2676],[ 0.02831795, 0.98681874, -0.15926699, -0.00457036], [0,0,-1,0], [9E+09, 9E+09, 9E+09, 9E+09, 9E+09, 9E+09]], cur_vel, cur_zone, cur_tool\WObj:=cur_wobj;
       MoveL [[638.0390, 2637.5620, -1490.2676],[ 0.02831795, 0.98681874, -0.15926699, -0.00457036], [0,0,-1,0], [9E+09, 9E+09, 9E+09, 9E+09, 9E+09, 9E+09]], cur_vel, cur_zone, cur_tool\WObj:=cur_wobj;
       MoveL [[638.0390, 2637.5620, -1485.2676],[ 0.02831795, 0.98681874, -0.15926699, -0.00457036], [0,0,-1,0], [9E+09, 9E+09, 9E+09, 9E+09, 9E+09, 9E+09]], cur_vel, cur_zone, cur_tool\WObj:=cur_wobj;
       MoveL [[638.0390, 2637.5620, -1480.2676],[ 0.02831795, 0.98681874, -0.15926699, -0.00457036], [0,0,-1,0], [9E+09, 9E+09, 9E+09, 9E+09, 9E+09, 9E+09]], cur_vel, cur_zone, cur_tool\WObj:=cur_wobj;
       MoveL [[638.0390, 2637.5620, -1475.2676],[ 0.02831795, 0.98681874, -0.15926699, -0.00457036], [0,0,-1,0], [9E+09, 9E+09, 9E+09, 9E+09, 9E+09, 9E+09]], cur_vel, cur_zone, cur_tool\WObj:=cur_wobj;
       MoveL [[638.0390, 2637.5620, -1470.2676],[ 0.02831795, 0.98681874, -0.15926699, -0.00457036], [0,0,-1,0], [9E+09, 9E+09, 9E+09, 9E+09, 9E+09, 9E+09]], cur_vel, cur_zone, cur_tool\WObj:=cur_wobj;
       MoveL [[638.0390, 2637.5620, -1465.2676],[ 0.02831795, 0.98681874, -0.15926699, -0.00457036], [0,0,-1,0], [9E+09, 9E+09, 9E+09, 9E+09, 9E+09, 9E+09]], cur_vel, cur_zone, cur_tool\WObj:=cur_wobj;
       MoveL [[638.0390, 2637.5620, -1460.2676],[ 0.02831795, 0.98681874, -0.15926699, -0.00457036], [0,0,-1,0], [9E+09, 9E+09, 9E+09, 9E+09, 9E+09, 9E+09]], cur_vel, cur_zone, cur_tool\WObj:=cur_wobj;
       MoveL [[638.0390, 2637.5620, -1455.2676],[ 0.02831795, 0.98681874, -0.15926699, -0.00457036], [0,0,-1,0], [9E+09, 9E+09, 9E+09, 9E+09, 9E+09, 9E+09]], cur_vel, cur_zone, cur_tool\WObj:=cur_wobj;
       MoveL [[638.0390, 2637.5620, -1450.2676],[ 0.02831795, 0.98681874, -0.15926699, -0.00457036], [0,0,-1,0], [9E+09, 9E+09, 9E+09, 9E+09, 9E+09, 9E+09]], cur_vel, cur_zone, cur_tool\WObj:=cur_wobj;
       MoveL [[638.0390, 2637.5620, -1445.2676],[ 0.02831795, 0.98681874, -0.15926699, -0.00457036], [0,0,-1,0], [9E+09, 9E+09, 9E+09, 9E+09, 9E+09, 9E+09]], cur_vel, cur_zone, cur_tool\WObj:=cur_wobj;
       MoveL [[638.0390, 2637.5620, -1440.2676],[ 0.02831795, 0.98681874, -0.15926699, -0.00457036], [0,0,-1,0], [9E+09, 9E+09, 9E+09, 9E+09, 9E+09, 9E+09]], cur_vel, cur_zone, cur_tool\WObj:=cur_wobj;
       MoveL [[638.0390, 2637.5620, -1435.2676],[ 0.02831795, 0.98681874, -0.15926699, -0.00457036], [0,0,-1,0], [9E+09, 9E+09, 9E+09, 9E+09, 9E+09, 9E+09]], cur_vel, cur_zone, cur_tool\WObj:=cur_wobj;
       MoveL [[638.0390, 2637.5620, -1430.2676],[ 0.02831795, 0.98681874, -0.15926699, -0.00457036], [0,0,-1,0], [9E+09, 9E+09, 9E+09, 9E+09, 9E+09, 9E+09]], cur_vel, cur_zone, cur_tool\WObj:=cur_wobj;
       MoveL [[638.0390, 2637.5620, -1425.2676],[ 0.02831795, 0.98681874, -0.15926699, -0.00457036], [0,0,-1,0], [9E+09, 9E+09, 9E+09, 9E+09, 9E+09, 9E+09]], cur_vel, cur_zone, cur_tool\WObj:=cur_wobj;
       MoveL [[638.0390, 2637.5620, -1420.2676],[ 0.02831795, 0.98681874, -0.15926699, -0.00457036], [0,0,-1,0], [9E+09, 9E+09, 9E+09, 9E+09, 9E+09, 9E+09]], cur_vel, cur_zone, cur_tool\WObj:=cur_wobj;
       MoveL [[638.0390, 2637.5620, -1415.2676],[ 0.02831795, 0.98681874, -0.15926699, -0.00457036], [0,0,-1,0], [9E+09, 9E+09, 9E+09, 9E+09, 9E+09, 9E+09]], cur_vel, cur_zone, cur_tool\WObj:=cur_wobj;
       MoveL [[638.0390, 2637.5620, -1410.2676],[ 0.02831795, 0.98681874, -0.15926699, -0.00457036], [0,0,-1,0], [9E+09, 9E+09, 9E+09, 9E+09, 9E+09, 9E+09]], cur_vel, cur_zone, cur_tool\WObj:=cur_wobj;
       MoveL [[638.0390, 2637.5620, -1405.2676],[ 0.02831795, 0.98681874, -0.15926699, -0.00457036], [0,0,-1,0], [9E+09, 9E+09, 9E+09, 9E+09, 9E+09, 9E+09]], cur_vel, cur_zone, cur_tool\WObj:=cur_wobj;
       MoveL [[638.0390, 2637.5620, -1400.2676],[ 0.02831795, 0.98681874, -0.15926699, -0.00457036], [0,0,-1,0], [9E+09, 9E+09, 9E+09, 9E+09, 9E+09, 9E+09]], cur_vel, cur_zone, cur_tool\WObj:=cur_wobj;
       MoveL [[638.0390, 2637.5620, -1395.2676],[ 0.02831795, 0.98681874, -0.15926699, -0.00457036], [0,0,-1,0], [9E+09, 9E+09, 9E+09, 9E+09, 9E+09, 9E+09]], cur_vel, cur_zone, cur_tool\WObj:=cur_wobj;
       MoveL [[638.0390, 2637.5620, -1390.2676],[ 0.02831795, 0.98681874, -0.15926699, -0.00457036], [0,0,-1,0], [9E+09, 9E+09, 9E+09, 9E+09, 9E+09, 9E+09]], cur_vel, cur_zone, cur_tool\WObj:=cur_wobj;
       MoveL [[638.0390, 2637.5620, -1385.2676],[ 0.02831795, 0.98681874, -0.15926699, -0.00457036], [0,0,-1,0], [9E+09, 9E+09, 9E+09, 9E+09, 9E+09, 9E+09]], cur_vel, cur_zone, cur_tool\WObj:=cur_wobj;
       MoveL [[638.0390, 2637.5620, -1380.2676],[ 0.02831795, 0.98681874, -0.15926699, -0.00457036], [0,0,-1,0], [9E+09, 9E+09, 9E+09, 9E+09, 9E+09, 9E+09]], cur_vel, cur_zone, cur_tool\WObj:=cur_wobj;
       MoveL [[638.0390, 2637.5620, -1375.2676],[ 0.02831795, 0.98681874, -0.15926699, -0.00457036], [0,0,-1,0], [9E+09, 9E+09, 9E+09, 9E+09, 9E+09, 9E+09]], cur_vel, cur_zone, cur_tool\WObj:=cur_wobj;
       MoveL [[638.0390, 2637.5620, -1370.2676],[ 0.02831795, 0.98681874, -0.15926699, -0.00457036], [0,0,-1,0], [9E+09, 9E+09, 9E+09, 9E+09, 9E+09, 9E+09]], cur_vel, cur_zone, cur_tool\WObj:=cur_wobj;
       MoveL [[638.0390, 2637.5620, -1365.2676],[ 0.02831795, 0.98681874, -0.15926699, -0.00457036], [0,0,-1,0], [9E+09, 9E+09, 9E+09, 9E+09, 9E+09, 9E+09]], cur_vel, cur_zone, cur_tool\WObj:=cur_wobj;
       MoveL [[638.0390, 2637.5620, -1360.2676],[ 0.02831795, 0.98681874, -0.15926699, -0.00457036], [0,0,-1,0], [9E+09, 9E+09, 9E+09, 9E+09, 9E+09, 9E+09]], cur_vel, cur_zone, cur_tool\WObj:=cur_wobj;
       MoveL [[638.0390, 2637.5620, -1355.2676],[ 0.02831795, 0.98681874, -0.15926699, -0.00457036], [0,0,-1,0], [9E+09, 9E+09, 9E+09, 9E+09, 9E+09, 9E+09]], cur_vel, cur_zone, cur_tool\WObj:=cur_wobj;
       MoveL [[638.0390, 2637.5620, -1350.2676],[ 0.02831795, 0.98681874, -0.15926699, -0.00457036], [0,0,-1,0], [9E+09, 9E+09, 9E+09, 9E+09, 9E+09, 9E+09]], cur_vel, cur_zone, cur_tool\WObj:=cur_wobj;
       MoveL [[638.0390, 2637.5620, -1345.2676],[ 0.02831795, 0.98681874, -0.15926699, -0.00457036], [0,0,-1,0], [9E+09, 9E+09, 9E+09, 9E+09, 9E+09, 9E+09]], cur_vel, cur_zone, cur_tool\WObj:=cur_wobj;
       MoveL [[638.0390, 2637.5620, -1340.2676],[ 0.02831795, 0.98681874, -0.15926699, -0.00457036], [0,0,-1,0], [9E+09, 9E+09, 9E+09, 9E+09, 9E+09, 9E+09]], cur_vel, cur_zone, cur_tool\WObj:=cur_wobj;
       MoveL [[638.0390, 2637.5620, -1335.2676],[ 0.02831795, 0.98681874, -0.15926699, -0.00457036], [0,0,-1,0], [9E+09, 9E+09, 9E+09, 9E+09, 9E+09, 9E+09]], cur_vel, cur_zone, cur_tool\WObj:=cur_wobj;
       MoveL [[638.0390, 2637.5620, -1330.2676],[ 0.02831795, 0.98681874, -0.15926699, -0.00457036], [0,0,-1,0], [9E+09, 9E+09, 9E+09, 9E+09, 9E+09, 9E+09]], cur_vel, cur_zone, cur_tool\WObj:=cur_wobj;
       MoveL [[638.0390, 2637.5620, -1325.2676],[ 0.02831795, 0.98681874, -0.15926699, -0.00457036], [0,0,-1,0], [9E+09, 9E+09, 9E+09, 9E+09, 9E+09, 9E+09]], cur_vel, cur_zone, cur_tool\WObj:=cur_wobj;
       MoveL [[638.0390, 2637.5620, -1320.2676],[ 0.02831795, 0.98681874, -0.15926699, -0.00457036], [0,0,-1,0], [9E+09, 9E+09, 9E+09, 9E+09, 9E+09, 9E+09]], cur_vel, cur_zone, cur_tool\WObj:=cur_wobj;
       MoveL [[638.0390, 2637.5620, -1315.2676],[ 0.02831795, 0.98681874, -0.15926699, -0.00457036], [0,0,-1,0], [9E+09, 9E+09, 9E+09, 9E+09, 9E+09, 9E+09]], cur_vel, cur_zone, cur_tool\WObj:=cur_wobj;
       MoveL [[638.0390, 2637.5620, -1310.2676],[ 0.02831795, 0.98681874, -0.15926699, -0.00457036], [0,0,-1,0], [9E+09, 9E+09, 9E+09, 9E+09, 9E+09, 9E+09]], cur_vel, cur_zone, cur_tool\WObj:=cur_wobj;
       MoveL [[638.0390, 2637.5620, -1305.2676],[ 0.02831795, 0.98681874, -0.15926699, -0.00457036], [0,0,-1,0], [9E+09, 9E+09, 9E+09, 9E+09, 9E+09, 9E+09]], cur_vel, cur_zone, cur_tool\WObj:=cur_wobj;
       MoveL [[638.0390, 2637.5620, -1300.2676],[ 0.02831795, 0.98681874, -0.15926699, -0.00457036], [0,0,-1,0], [9E+09, 9E+09, 9E+09, 9E+09, 9E+09, 9E+09]], cur_vel, cur_zone, cur_tool\WObj:=cur_wobj;
       MoveL [[638.0390, 2637.5620, -1295.2676],[ 0.02831795, 0.98681874, -0.15926699, -0.00457036], [0,0,-1,0], [9E+09, 9E+09, 9E+09, 9E+09, 9E+09, 9E+09]], cur_vel, cur_zone, cur_tool\WObj:=cur_wobj;
       MoveL [[638.0390, 2637.5620, -1291.5907],[ 0.02831795, 0.98681874, -0.15926699, -0.00457036], [0,0,-1,0], [9E+09, 9E+09, 9E+09, 9E+09, 9E+09, 9E+09]], cur_vel, cur_zone, cur_tool\WObj:=cur_wobj;

       ! Processing surface number: 5

       MoveL [[633.0420, 2637.6887, -1291.4718],[ 0.02802761, 0.98715443, -0.15722459, -0.00458306], [0,0,-1,0], [9E+09, 9E+09, 9E+09, 9E+09, 9E+09, 9E+09]], cur_vel, cur_zone, cur_tool\WObj:=cur_wobj;
       MoveL [[628.0451, 2637.8155, -1291.3529],[ 0.02773757, 0.98748532, -0.15518455, -0.00459573], [0,0,-1,0], [9E+09, 9E+09, 9E+09, 9E+09, 9E+09, 9E+09]], cur_vel, cur_zone, cur_tool\WObj:=cur_wobj;
       MoveL [[623.0481, 2637.9423, -1291.2341],[ 0.02744785, 0.98781142, -0.15314693, -0.00460836], [0,0,-1,0], [9E+09, 9E+09, 9E+09, 9E+09, 9E+09, 9E+09]], cur_vel, cur_zone, cur_tool\WObj:=cur_wobj;
       MoveL [[618.0511, 2638.0691, -1291.1152],[ 0.02715847, 0.98813273, -0.15111182, -0.00462095], [0,0,-1,0], [9E+09, 9E+09, 9E+09, 9E+09, 9E+09, 9E+09]], cur_vel, cur_zone, cur_tool\WObj:=cur_wobj;
       MoveL [[613.0541, 2638.1958, -1290.9963],[ 0.02686942, 0.98844926, -0.14907928, -0.00463350], [0,0,-1,0], [9E+09, 9E+09, 9E+09, 9E+09, 9E+09, 9E+09]], cur_vel, cur_zone, cur_tool\WObj:=cur_wobj;
       MoveL [[608.0572, 2638.3226, -1290.8775],[ 0.02658072, 0.98876102, -0.14704939, -0.00464602], [0,0,-1,0], [9E+09, 9E+09, 9E+09, 9E+09, 9E+09, 9E+09]], cur_vel, cur_zone, cur_tool\WObj:=cur_wobj;
       MoveL [[603.0602, 2638.4494, -1290.7586],[ 0.02629238, 0.98906803, -0.14502223, -0.00465849], [0,0,-1,0], [9E+09, 9E+09, 9E+09, 9E+09, 9E+09, 9E+09]], cur_vel, cur_zone, cur_tool\WObj:=cur_wobj;
       MoveL [[598.0632, 2638.5762, -1290.6397],[ 0.02600441, 0.98937029, -0.14299786, -0.00467092], [0,0,-1,0], [9E+09, 9E+09, 9E+09, 9E+09, 9E+09, 9E+09]], cur_vel, cur_zone, cur_tool\WObj:=cur_wobj;
       MoveL [[593.0662, 2638.7029, -1290.5209],[ 0.02571683, 0.98966781, -0.14097637, -0.00468331], [0,0,-1,0], [9E+09, 9E+09, 9E+09, 9E+09, 9E+09, 9E+09]], cur_vel, cur_zone, cur_tool\WObj:=cur_wobj;
       MoveL [[588.0692, 2638.8297, -1290.4020],[ 0.02542963, 0.98996061, -0.13895781, -0.00469566], [0,0,-1,0], [9E+09, 9E+09, 9E+09, 9E+09, 9E+09, 9E+09]], cur_vel, cur_zone, cur_tool\WObj:=cur_wobj;
       MoveL [[583.0723, 2638.9565, -1290.2831],[ 0.02514284, 0.99024870, -0.13694227, -0.00470797], [0,0,-1,0], [9E+09, 9E+09, 9E+09, 9E+09, 9E+09, 9E+09]], cur_vel, cur_zone, cur_tool\WObj:=cur_wobj;
       MoveL [[578.0753, 2639.0833, -1290.1642],[ 0.02485646, 0.99053209, -0.13492981, -0.00472023], [0,0,-1,0], [9E+09, 9E+09, 9E+09, 9E+09, 9E+09, 9E+09]], cur_vel, cur_zone, cur_tool\WObj:=cur_wobj;
       MoveL [[573.0783, 2639.2100, -1290.0454],[ 0.02457050, 0.99081080, -0.13292050, -0.00473246], [0,0,-1,0], [9E+09, 9E+09, 9E+09, 9E+09, 9E+09, 9E+09]], cur_vel, cur_zone, cur_tool\WObj:=cur_wobj;
       MoveL [[568.0813, 2639.3368, -1289.9265],[ 0.02428498, 0.99108483, -0.13091441, -0.00474464], [0,0,-1,0], [9E+09, 9E+09, 9E+09, 9E+09, 9E+09, 9E+09]], cur_vel, cur_zone, cur_tool\WObj:=cur_wobj;
       MoveL [[563.0843, 2639.4636, -1289.8076],[ 0.02399989, 0.99135421, -0.12891161, -0.00475678], [0,0,-1,0], [9E+09, 9E+09, 9E+09, 9E+09, 9E+09, 9E+09]], cur_vel, cur_zone, cur_tool\WObj:=cur_wobj;
       MoveL [[558.0874, 2639.5904, -1289.6888],[ 0.02371526, 0.99161895, -0.12691216, -0.00476888], [0,0,-1,0], [9E+09, 9E+09, 9E+09, 9E+09, 9E+09, 9E+09]], cur_vel, cur_zone, cur_tool\WObj:=cur_wobj;
       MoveL [[553.0904, 2639.7171, -1289.5699],[ 0.02343109, 0.99187907, -0.12491614, -0.00478094], [0,0,-1,0], [9E+09, 9E+09, 9E+09, 9E+09, 9E+09, 9E+09]], cur_vel, cur_zone, cur_tool\WObj:=cur_wobj;
       MoveL [[548.0934, 2639.8439, -1289.4510],[ 0.02314739, 0.99213458, -0.12292360, -0.00479295], [0,0,-1,0], [9E+09, 9E+09, 9E+09, 9E+09, 9E+09, 9E+09]], cur_vel, cur_zone, cur_tool\WObj:=cur_wobj;
       MoveL [[543.0964, 2639.9707, -1289.3322],[ 0.02286417, 0.99238549, -0.12093461, -0.00480492], [0,0,-1,0], [9E+09, 9E+09, 9E+09, 9E+09, 9E+09, 9E+09]], cur_vel, cur_zone, cur_tool\WObj:=cur_wobj;
       MoveL [[538.0995, 2640.0975, -1289.2133],[ 0.02258144, 0.99263183, -0.11894924, -0.00481684], [0,0,-1,0], [9E+09, 9E+09, 9E+09, 9E+09, 9E+09, 9E+09]], cur_vel, cur_zone, cur_tool\WObj:=cur_wobj;
       MoveL [[533.1025, 2640.2242, -1289.0944],[ 0.02229921, 0.99287362, -0.11696754, -0.00482873], [0,0,-1,0], [9E+09, 9E+09, 9E+09, 9E+09, 9E+09, 9E+09]], cur_vel, cur_zone, cur_tool\WObj:=cur_wobj;
       MoveL [[528.1055, 2640.3510, -1288.9755],[ 0.02201748, 0.99311087, -0.11498959, -0.00484056], [0,0,-1,0], [9E+09, 9E+09, 9E+09, 9E+09, 9E+09, 9E+09]], cur_vel, cur_zone, cur_tool\WObj:=cur_wobj;
       MoveL [[523.1085, 2640.4778, -1288.8567],[ 0.02173628, 0.99334360, -0.11301543, -0.00485236], [0,0,-1,0], [9E+09, 9E+09, 9E+09, 9E+09, 9E+09, 9E+09]], cur_vel, cur_zone, cur_tool\WObj:=cur_wobj;
       MoveL [[518.1115, 2640.6046, -1288.7378],[ 0.02145559, 0.99357183, -0.11104514, -0.00486411], [0,0,-1,0], [9E+09, 9E+09, 9E+09, 9E+09, 9E+09, 9E+09]], cur_vel, cur_zone, cur_tool\WObj:=cur_wobj;
       MoveL [[513.1146, 2640.7313, -1288.6189],[ 0.02117544, 0.99379558, -0.10907877, -0.00487581], [0,0,-1,0], [9E+09, 9E+09, 9E+09, 9E+09, 9E+09, 9E+09]], cur_vel, cur_zone, cur_tool\WObj:=cur_wobj;
       MoveL [[508.1176, 2640.8581, -1288.5001],[ 0.02089584, 0.99401487, -0.10711638, -0.00488747], [0,0,-1,0], [9E+09, 9E+09, 9E+09, 9E+09, 9E+09, 9E+09]], cur_vel, cur_zone, cur_tool\WObj:=cur_wobj;
       MoveL [[503.1206, 2640.9849, -1288.3812],[ 0.02061678, 0.99422972, -0.10515804, -0.00489909], [0,0,-1,0], [9E+09, 9E+09, 9E+09, 9E+09, 9E+09, 9E+09]], cur_vel, cur_zone, cur_tool\WObj:=cur_wobj;
       MoveL [[498.1236, 2641.1117, -1288.2623],[ 0.02033829, 0.99444015, -0.10320378, -0.00491066], [0,0,-1,0], [9E+09, 9E+09, 9E+09, 9E+09, 9E+09, 9E+09]], cur_vel, cur_zone, cur_tool\WObj:=cur_wobj;
       MoveL [[493.1266, 2641.2384, -1288.1435],[ 0.02006036, 0.99464619, -0.10125368, -0.00492218], [0,0,-1,0], [9E+09, 9E+09, 9E+09, 9E+09, 9E+09, 9E+09]], cur_vel, cur_zone, cur_tool\WObj:=cur_wobj;
       MoveL [[488.1297, 2641.3652, -1288.0246],[ 0.01978300, 0.99484785, -0.09930779, -0.00493366], [0,0,-1,0], [9E+09, 9E+09, 9E+09, 9E+09, 9E+09, 9E+09]], cur_vel, cur_zone, cur_tool\WObj:=cur_wobj;
       MoveL [[483.1327, 2641.4920, -1287.9057],[ 0.01950623, 0.99504517, -0.09736617, -0.00494509], [0,0,-1,0], [9E+09, 9E+09, 9E+09, 9E+09, 9E+09, 9E+09]], cur_vel, cur_zone, cur_tool\WObj:=cur_wobj;
       MoveL [[478.1357, 2641.6188, -1287.7868],[ 0.01923005, 0.99523815, -0.09542886, -0.00495648], [0,0,-1,0], [9E+09, 9E+09, 9E+09, 9E+09, 9E+09, 9E+09]], cur_vel, cur_zone, cur_tool\WObj:=cur_wobj;
       MoveL [[473.1387, 2641.7455, -1287.6680],[ 0.01895447, 0.99542682, -0.09349591, -0.00496782], [0,0,-1,0], [9E+09, 9E+09, 9E+09, 9E+09, 9E+09, 9E+09]], cur_vel, cur_zone, cur_tool\WObj:=cur_wobj;
       MoveL [[468.1417, 2641.8723, -1287.5491],[ 0.01867950, 0.99561122, -0.09156739, -0.00497912], [0,0,-2,0], [9E+09, 9E+09, 9E+09, 9E+09, 9E+09, 9E+09]], cur_vel, cur_zone, cur_tool\WObj:=cur_wobj;
       MoveL [[463.1448, 2641.9991, -1287.4302],[ 0.01840514, 0.99579135, -0.08964335, -0.00499037], [0,0,-2,0], [9E+09, 9E+09, 9E+09, 9E+09, 9E+09, 9E+09]], cur_vel, cur_zone, cur_tool\WObj:=cur_wobj;
       MoveL [[458.1478, 2642.1259, -1287.3114],[ 0.01813141, 0.99596725, -0.08772382, -0.00500157], [0,0,-2,0], [9E+09, 9E+09, 9E+09, 9E+09, 9E+09, 9E+09]], cur_vel, cur_zone, cur_tool\WObj:=cur_wobj;
       MoveL [[453.1508, 2642.2526, -1287.1925],[ 0.01785830, 0.99613894, -0.08580887, -0.00501273], [0,0,-2,0], [9E+09, 9E+09, 9E+09, 9E+09, 9E+09, 9E+09]], cur_vel, cur_zone, cur_tool\WObj:=cur_wobj;
       MoveL [[448.1538, 2642.3794, -1287.0736],[ 0.01758583, 0.99630645, -0.08389854, -0.00502384], [0,0,-2,0], [9E+09, 9E+09, 9E+09, 9E+09, 9E+09, 9E+09]], cur_vel, cur_zone, cur_tool\WObj:=cur_wobj;
       MoveL [[443.1569, 2642.5062, -1286.9547],[ 0.01731400, 0.99646979, -0.08199288, -0.00503491], [0,0,-2,0], [9E+09, 9E+09, 9E+09, 9E+09, 9E+09, 9E+09]], cur_vel, cur_zone, cur_tool\WObj:=cur_wobj;
       MoveL [[438.1599, 2642.6329, -1286.8359],[ 0.01704282, 0.99662900, -0.08009194, -0.00504592], [0,0,-2,0], [9E+09, 9E+09, 9E+09, 9E+09, 9E+09, 9E+09]], cur_vel, cur_zone, cur_tool\WObj:=cur_wobj;
       MoveL [[433.1629, 2642.7597, -1286.7170],[ 0.01677229, 0.99678410, -0.07819575, -0.00505690], [0,0,-2,0], [9E+09, 9E+09, 9E+09, 9E+09, 9E+09, 9E+09]], cur_vel, cur_zone, cur_tool\WObj:=cur_wobj;
       MoveL [[428.1659, 2642.8865, -1286.5981],[ 0.01650243, 0.99693512, -0.07630438, -0.00506782], [0,0,-2,0], [9E+09, 9E+09, 9E+09, 9E+09, 9E+09, 9E+09]], cur_vel, cur_zone, cur_tool\WObj:=cur_wobj;
       MoveL [[423.1689, 2643.0133, -1286.4793],[ 0.01623324, 0.99708208, -0.07441785, -0.00507870], [0,0,-2,0], [9E+09, 9E+09, 9E+09, 9E+09, 9E+09, 9E+09]], cur_vel, cur_zone, cur_tool\WObj:=cur_wobj;
       MoveL [[418.1720, 2643.1400, -1286.3604],[ 0.01596473, 0.99722501, -0.07253622, -0.00508953], [0,0,-2,0], [9E+09, 9E+09, 9E+09, 9E+09, 9E+09, 9E+09]], cur_vel, cur_zone, cur_tool\WObj:=cur_wobj;
       MoveL [[413.1750, 2643.2668, -1286.2415],[ 0.01569689, 0.99736394, -0.07065952, -0.00510031], [0,0,-2,0], [9E+09, 9E+09, 9E+09, 9E+09, 9E+09, 9E+09]], cur_vel, cur_zone, cur_tool\WObj:=cur_wobj;
       MoveL [[408.1780, 2643.3936, -1286.1227],[ 0.01542975, 0.99749889, -0.06878780, -0.00511104], [0,0,-2,0], [9E+09, 9E+09, 9E+09, 9E+09, 9E+09, 9E+09]], cur_vel, cur_zone, cur_tool\WObj:=cur_wobj;
       MoveL [[403.1810, 2643.5204, -1286.0038],[ 0.01516330, 0.99762990, -0.06692110, -0.00512173], [0,0,-2,0], [9E+09, 9E+09, 9E+09, 9E+09, 9E+09, 9E+09]], cur_vel, cur_zone, cur_tool\WObj:=cur_wobj;
       MoveL [[398.1840, 2643.6471, -1285.8849],[ 0.01489755, 0.99775698, -0.06505945, -0.00513237], [0,0,-2,0], [9E+09, 9E+09, 9E+09, 9E+09, 9E+09, 9E+09]], cur_vel, cur_zone, cur_tool\WObj:=cur_wobj;
       MoveL [[393.1871, 2643.7739, -1285.7660],[ 0.01463250, 0.99788017, -0.06320291, -0.00514297], [0,0,-2,0], [9E+09, 9E+09, 9E+09, 9E+09, 9E+09, 9E+09]], cur_vel, cur_zone, cur_tool\WObj:=cur_wobj;
       MoveL [[388.1901, 2643.9007, -1285.6472],[ 0.01436817, 0.99799949, -0.06135149, -0.00515351], [0,0,-2,0], [9E+09, 9E+09, 9E+09, 9E+09, 9E+09, 9E+09]], cur_vel, cur_zone, cur_tool\WObj:=cur_wobj;
       MoveL [[383.1931, 2644.0275, -1285.5283],[ 0.01410455, 0.99811498, -0.05950525, -0.00516401], [0,0,-2,0], [9E+09, 9E+09, 9E+09, 9E+09, 9E+09, 9E+09]], cur_vel, cur_zone, cur_tool\WObj:=cur_wobj;
       MoveL [[378.1961, 2644.1542, -1285.4094],[ 0.01384166, 0.99822666, -0.05766422, -0.00517446], [0,0,-2,0], [9E+09, 9E+09, 9E+09, 9E+09, 9E+09, 9E+09]], cur_vel, cur_zone, cur_tool\WObj:=cur_wobj;
       MoveL [[373.1991, 2644.2810, -1285.2906],[ 0.01357949, 0.99833456, -0.05582843, -0.00518487], [0,0,-2,0], [9E+09, 9E+09, 9E+09, 9E+09, 9E+09, 9E+09]], cur_vel, cur_zone, cur_tool\WObj:=cur_wobj;
       MoveL [[368.2022, 2644.4078, -1285.1717],[ 0.01331806, 0.99843871, -0.05399791, -0.00519522], [0,0,-2,0], [9E+09, 9E+09, 9E+09, 9E+09, 9E+09, 9E+09]], cur_vel, cur_zone, cur_tool\WObj:=cur_wobj;
       MoveL [[363.2052, 2644.5346, -1285.0528],[ 0.01305736, 0.99853914, -0.05217271, -0.00520553], [0,0,-2,0], [9E+09, 9E+09, 9E+09, 9E+09, 9E+09, 9E+09]], cur_vel, cur_zone, cur_tool\WObj:=cur_wobj;
       MoveL [[358.2082, 2644.6613, -1284.9340],[ 0.01279740, 0.99863588, -0.05035285, -0.00521579], [0,0,-2,0], [9E+09, 9E+09, 9E+09, 9E+09, 9E+09, 9E+09]], cur_vel, cur_zone, cur_tool\WObj:=cur_wobj;
       MoveL [[353.2112, 2644.7881, -1284.8151],[ 0.01253820, 0.99872895, -0.04853837, -0.00522601], [0,0,-2,0], [9E+09, 9E+09, 9E+09, 9E+09, 9E+09, 9E+09]], cur_vel, cur_zone, cur_tool\WObj:=cur_wobj;
       MoveL [[348.2143, 2644.9149, -1284.6962],[ 0.01227974, 0.99881838, -0.04672929, -0.00523617], [0,0,-2,0], [9E+09, 9E+09, 9E+09, 9E+09, 9E+09, 9E+09]], cur_vel, cur_zone, cur_tool\WObj:=cur_wobj;
       MoveL [[343.2173, 2645.0417, -1284.5773],[ 0.01202204, 0.99890422, -0.04492565, -0.00524629], [0,0,-2,0], [9E+09, 9E+09, 9E+09, 9E+09, 9E+09, 9E+09]], cur_vel, cur_zone, cur_tool\WObj:=cur_wobj;
       MoveL [[338.2203, 2645.1684, -1284.4585],[ 0.01176510, 0.99898647, -0.04312747, -0.00525636], [0,0,-2,0], [9E+09, 9E+09, 9E+09, 9E+09, 9E+09, 9E+09]], cur_vel, cur_zone, cur_tool\WObj:=cur_wobj;
       MoveL [[333.2233, 2645.2952, -1284.3396],[ 0.01150893, 0.99906519, -0.04133479, -0.00526638], [0,0,-2,0], [9E+09, 9E+09, 9E+09, 9E+09, 9E+09, 9E+09]], cur_vel, cur_zone, cur_tool\WObj:=cur_wobj;
       MoveL [[328.2263, 2645.4220, -1284.2207],[ 0.01125353, 0.99914038, -0.03954764, -0.00527636], [0,0,-2,0], [9E+09, 9E+09, 9E+09, 9E+09, 9E+09, 9E+09]], cur_vel, cur_zone, cur_tool\WObj:=cur_wobj;
       MoveL [[323.2294, 2645.5488, -1284.1019],[ 0.01099890, 0.99921209, -0.03776603, -0.00528629], [0,0,-2,0], [9E+09, 9E+09, 9E+09, 9E+09, 9E+09, 9E+09]], cur_vel, cur_zone, cur_tool\WObj:=cur_wobj;
       MoveL [[318.2324, 2645.6755, -1283.9830],[ 0.01074504, 0.99928035, -0.03598999, -0.00529617], [0,0,-2,0], [9E+09, 9E+09, 9E+09, 9E+09, 9E+09, 9E+09]], cur_vel, cur_zone, cur_tool\WObj:=cur_wobj;
       MoveL [[313.2354, 2645.8023, -1283.8641],[ 0.01049197, 0.99934518, -0.03421956, -0.00530600], [0,0,-2,0], [9E+09, 9E+09, 9E+09, 9E+09, 9E+09, 9E+09]], cur_vel, cur_zone, cur_tool\WObj:=cur_wobj;
       MoveL [[308.2384, 2645.9291, -1283.7453],[ 0.01023968, 0.99940661, -0.03245475, -0.00531579], [0,0,-2,0], [9E+09, 9E+09, 9E+09, 9E+09, 9E+09, 9E+09]], cur_vel, cur_zone, cur_tool\WObj:=cur_wobj;
       MoveL [[303.2414, 2646.0559, -1283.6264],[ 0.00998818, 0.99946468, -0.03069559, -0.00532553], [0,0,-2,0], [9E+09, 9E+09, 9E+09, 9E+09, 9E+09, 9E+09]], cur_vel, cur_zone, cur_tool\WObj:=cur_wobj;
       MoveL [[298.2445, 2646.1826, -1283.5075],[ 0.00973747, 0.99951942, -0.02894210, -0.00533522], [0,0,-2,0], [9E+09, 9E+09, 9E+09, 9E+09, 9E+09, 9E+09]], cur_vel, cur_zone, cur_tool\WObj:=cur_wobj;
       MoveL [[293.2475, 2646.3094, -1283.3886],[ 0.00948756, 0.99957085, -0.02719430, -0.00534486], [0,0,-2,0], [9E+09, 9E+09, 9E+09, 9E+09, 9E+09, 9E+09]], cur_vel, cur_zone, cur_tool\WObj:=cur_wobj;
       MoveL [[288.2505, 2646.4362, -1283.2698],[ 0.00923844, 0.99961901, -0.02545221, -0.00535446], [0,0,-2,0], [9E+09, 9E+09, 9E+09, 9E+09, 9E+09, 9E+09]], cur_vel, cur_zone, cur_tool\WObj:=cur_wobj;
       MoveL [[283.2535, 2646.5630, -1283.1509],[ 0.00899013, 0.99966393, -0.02371586, -0.00536401], [0,0,-2,0], [9E+09, 9E+09, 9E+09, 9E+09, 9E+09, 9E+09]], cur_vel, cur_zone, cur_tool\WObj:=cur_wobj;
       MoveL [[278.2565, 2646.6897, -1283.0320],[ 0.00874261, 0.99970563, -0.02198526, -0.00537351], [0,0,-2,0], [9E+09, 9E+09, 9E+09, 9E+09, 9E+09, 9E+09]], cur_vel, cur_zone, cur_tool\WObj:=cur_wobj;
       MoveL [[273.2596, 2646.8165, -1282.9132],[ 0.00849591, 0.99974415, -0.02026044, -0.00538297], [0,0,-2,0], [9E+09, 9E+09, 9E+09, 9E+09, 9E+09, 9E+09]], cur_vel, cur_zone, cur_tool\WObj:=cur_wobj;
       MoveL [[268.2626, 2646.9433, -1282.7943],[ 0.00825002, 0.99977951, -0.01854141, -0.00539238], [0,0,-2,0], [9E+09, 9E+09, 9E+09, 9E+09, 9E+09, 9E+09]], cur_vel, cur_zone, cur_tool\WObj:=cur_wobj;
       MoveL [[263.2656, 2647.0701, -1282.6754],[ 0.00800494, 0.99981176, -0.01682818, -0.00540174], [0,0,-2,0], [9E+09, 9E+09, 9E+09, 9E+09, 9E+09, 9E+09]], cur_vel, cur_zone, cur_tool\WObj:=cur_wobj;
       MoveL [[258.2686, 2647.1968, -1282.5565],[ 0.00776067, 0.99984091, -0.01512078, -0.00541105], [0,0,-2,0], [9E+09, 9E+09, 9E+09, 9E+09, 9E+09, 9E+09]], cur_vel, cur_zone, cur_tool\WObj:=cur_wobj;
       MoveL [[253.2717, 2647.3236, -1282.4377],[ 0.00751722, 0.99986701, -0.01341922, -0.00542032], [0,0,-2,0], [9E+09, 9E+09, 9E+09, 9E+09, 9E+09, 9E+09]], cur_vel, cur_zone, cur_tool\WObj:=cur_wobj;
       MoveL [[248.2747, 2647.4504, -1282.3188],[ 0.00727459, 0.99989007, -0.01172352, -0.00542954], [0,0,-2,0], [9E+09, 9E+09, 9E+09, 9E+09, 9E+09, 9E+09]], cur_vel, cur_zone, cur_tool\WObj:=cur_wobj;
       MoveL [[243.2777, 2647.5772, -1282.1999],[ 0.00703279, 0.99991014, -0.01003368, -0.00543871], [0,0,-2,0], [9E+09, 9E+09, 9E+09, 9E+09, 9E+09, 9E+09]], cur_vel, cur_zone, cur_tool\WObj:=cur_wobj;
       MoveL [[238.2807, 2647.7039, -1282.0811],[ 0.00679181, 0.99992723, -0.00834973, -0.00544784], [0,0,-2,0], [9E+09, 9E+09, 9E+09, 9E+09, 9E+09, 9E+09]], cur_vel, cur_zone, cur_tool\WObj:=cur_wobj;
       MoveL [[233.2837, 2647.8307, -1281.9622],[ 0.00655165, 0.99994139, -0.00667168, -0.00545692], [0,0,-2,0], [9E+09, 9E+09, 9E+09, 9E+09, 9E+09, 9E+09]], cur_vel, cur_zone, cur_tool\WObj:=cur_wobj;
       MoveL [[228.2868, 2647.9575, -1281.8433],[ 0.00631232, 0.99995264, -0.00499953, -0.00546596], [0,0,-2,0], [9E+09, 9E+09, 9E+09, 9E+09, 9E+09, 9E+09]], cur_vel, cur_zone, cur_tool\WObj:=cur_wobj;
       MoveL [[223.2898, 2648.0843, -1281.7245],[ 0.00607382, 0.99996101, -0.00333331, -0.00547495], [0,0,-2,0], [9E+09, 9E+09, 9E+09, 9E+09, 9E+09, 9E+09]], cur_vel, cur_zone, cur_tool\WObj:=cur_wobj;
       MoveL [[218.2928, 2648.2110, -1281.6056],[ 0.00583616, 0.99996653, -0.00167301, -0.00548389], [0,0,-2,0], [9E+09, 9E+09, 9E+09, 9E+09, 9E+09, 9E+09]], cur_vel, cur_zone, cur_tool\WObj:=cur_wobj;
       MoveL [[213.2958, 2648.3378, -1281.4867],[ 0.00559933, 0.99996924, -0.00001866, -0.00549279], [0,0,-2,0], [9E+09, 9E+09, 9E+09, 9E+09, 9E+09, 9E+09]], cur_vel, cur_zone, cur_tool\WObj:=cur_wobj;
       MoveL [[208.2988, 2648.4646, -1281.3678],[ 0.00536333, 0.99996915, 0.00162974, -0.00550164], [0,0,-2,0], [9E+09, 9E+09, 9E+09, 9E+09, 9E+09, 9E+09]], cur_vel, cur_zone, cur_tool\WObj:=cur_wobj;
       MoveL [[203.3019, 2648.5914, -1281.2490],[ 0.00512817, 0.99996631, 0.00327218, -0.00551044], [0,0,-2,0], [9E+09, 9E+09, 9E+09, 9E+09, 9E+09, 9E+09]], cur_vel, cur_zone, cur_tool\WObj:=cur_wobj;
       MoveL [[198.3049, 2648.7181, -1281.1301],[ 0.00489385, 0.99996075, 0.00490866, -0.00551920], [0,0,-2,0], [9E+09, 9E+09, 9E+09, 9E+09, 9E+09, 9E+09]], cur_vel, cur_zone, cur_tool\WObj:=cur_wobj;
       MoveL [[193.3079, 2648.8449, -1281.0112],[ 0.00466037, 0.99995248, 0.00653915, -0.00552792], [0,0,-2,0], [9E+09, 9E+09, 9E+09, 9E+09, 9E+09, 9E+09]], cur_vel, cur_zone, cur_tool\WObj:=cur_wobj;
       MoveL [[188.3109, 2648.9717, -1280.8924],[ 0.00442772, 0.99994155, 0.00816367, -0.00553659], [0,0,-2,0], [9E+09, 9E+09, 9E+09, 9E+09, 9E+09, 9E+09]], cur_vel, cur_zone, cur_tool\WObj:=cur_wobj;
       MoveL [[183.3139, 2649.0985, -1280.7735],[ 0.00419592, 0.99992797, 0.00978219, -0.00554521], [0,0,-2,0], [9E+09, 9E+09, 9E+09, 9E+09, 9E+09, 9E+09]], cur_vel, cur_zone, cur_tool\WObj:=cur_wobj;
       MoveL [[178.3170, 2649.2252, -1280.6546],[ 0.00396496, 0.99991179, 0.01139473, -0.00555379], [0,0,-2,0], [9E+09, 9E+09, 9E+09, 9E+09, 9E+09, 9E+09]], cur_vel, cur_zone, cur_tool\WObj:=cur_wobj;
       MoveL [[173.3200, 2649.3520, -1280.5358],[ 0.00373485, 0.99989303, 0.01300126, -0.00556232], [0,0,-2,0], [9E+09, 9E+09, 9E+09, 9E+09, 9E+09, 9E+09]], cur_vel, cur_zone, cur_tool\WObj:=cur_wobj;
       MoveL [[168.3230, 2649.4788, -1280.4169],[ 0.00350558, 0.99987172, 0.01460179, -0.00557081], [0,0,-2,0], [9E+09, 9E+09, 9E+09, 9E+09, 9E+09, 9E+09]], cur_vel, cur_zone, cur_tool\WObj:=cur_wobj;
       MoveL [[163.3260, 2649.6056, -1280.2980],[ 0.00327715, 0.99984789, 0.01619631, -0.00557925], [0,0,-2,0], [9E+09, 9E+09, 9E+09, 9E+09, 9E+09, 9E+09]], cur_vel, cur_zone, cur_tool\WObj:=cur_wobj;
       MoveL [[158.3291, 2649.7323, -1280.1791],[ 0.00304957, 0.99982157, 0.01778481, -0.00558765], [0,0,-2,0], [9E+09, 9E+09, 9E+09, 9E+09, 9E+09, 9E+09]], cur_vel, cur_zone, cur_tool\WObj:=cur_wobj;
       MoveL [[153.3321, 2649.8591, -1280.0603],[ 0.00282284, 0.99979279, 0.01936731, -0.00559600], [0,0,-2,0], [9E+09, 9E+09, 9E+09, 9E+09, 9E+09, 9E+09]], cur_vel, cur_zone, cur_tool\WObj:=cur_wobj;
       MoveL [[148.3351, 2649.9859, -1279.9414],[ 0.00259695, 0.99976157, 0.02094379, -0.00560431], [0,0,-2,0], [9E+09, 9E+09, 9E+09, 9E+09, 9E+09, 9E+09]], cur_vel, cur_zone, cur_tool\WObj:=cur_wobj;
       MoveL [[143.3381, 2650.1126, -1279.8225],[ 0.00237191, 0.99972795, 0.02251425, -0.00561258], [0,0,-2,0], [9E+09, 9E+09, 9E+09, 9E+09, 9E+09, 9E+09]], cur_vel, cur_zone, cur_tool\WObj:=cur_wobj;
       MoveL [[138.3411, 2650.2394, -1279.7037],[ 0.00214772, 0.99969196, 0.02407869, -0.00562080], [0,0,-2,0], [9E+09, 9E+09, 9E+09, 9E+09, 9E+09, 9E+09]], cur_vel, cur_zone, cur_tool\WObj:=cur_wobj;
       MoveL [[133.3442, 2650.3662, -1279.5848],[ 0.00192437, 0.99965361, 0.02563712, -0.00562898], [0,0,-2,0], [9E+09, 9E+09, 9E+09, 9E+09, 9E+09, 9E+09]], cur_vel, cur_zone, cur_tool\WObj:=cur_wobj;
       MoveL [[128.3472, 2650.4930, -1279.4659],[ 0.00170187, 0.99961295, 0.02718952, -0.00563711], [0,0,-2,0], [9E+09, 9E+09, 9E+09, 9E+09, 9E+09, 9E+09]], cur_vel, cur_zone, cur_tool\WObj:=cur_wobj;
       MoveL [[123.3502, 2650.6197, -1279.3471],[ 0.00148022, 0.99957000, 0.02873591, -0.00564520], [0,0,-2,0], [9E+09, 9E+09, 9E+09, 9E+09, 9E+09, 9E+09]], cur_vel, cur_zone, cur_tool\WObj:=cur_wobj;
       MoveL [[118.3532, 2650.7465, -1279.2282],[ 0.00125942, 0.99952479, 0.03027628, -0.00565325], [0,0,-2,0], [9E+09, 9E+09, 9E+09, 9E+09, 9E+09, 9E+09]], cur_vel, cur_zone, cur_tool\WObj:=cur_wobj;
       MoveL [[113.3562, 2650.8733, -1279.1093],[ 0.00103947, 0.99947734, 0.03181063, -0.00566125], [0,0,-2,0], [9E+09, 9E+09, 9E+09, 9E+09, 9E+09, 9E+09]], cur_vel, cur_zone, cur_tool\WObj:=cur_wobj;
       MoveL [[108.3593, 2651.0001, -1278.9904],[ 0.00082036, 0.99942769, 0.03333897, -0.00566921], [0,0,-2,0], [9E+09, 9E+09, 9E+09, 9E+09, 9E+09, 9E+09]], cur_vel, cur_zone, cur_tool\WObj:=cur_wobj;
       MoveL [[103.3623, 2651.1268, -1278.8716],[ 0.00060210, 0.99937585, 0.03486130, -0.00567712], [0,0,-2,0], [9E+09, 9E+09, 9E+09, 9E+09, 9E+09, 9E+09]], cur_vel, cur_zone, cur_tool\WObj:=cur_wobj;
       MoveL [[98.3653, 2651.2536, -1278.7527],[ 0.00038469, 0.99932187, 0.03637762, -0.00568500], [0,0,-2,0], [9E+09, 9E+09, 9E+09, 9E+09, 9E+09, 9E+09]], cur_vel, cur_zone, cur_tool\WObj:=cur_wobj;
       MoveL [[93.3683, 2651.3804, -1278.6338],[ 0.00016812, 0.99926576, 0.03788794, -0.00569283], [0,0,-2,0], [9E+09, 9E+09, 9E+09, 9E+09, 9E+09, 9E+09]], cur_vel, cur_zone, cur_tool\WObj:=cur_wobj;
       MoveL [[88.3714, 2651.5072, -1278.5150],[ -0.00004759, 0.99920756, 0.03939226, -0.00570062], [0,0,-2,0], [9E+09, 9E+09, 9E+09, 9E+09, 9E+09, 9E+09]], cur_vel, cur_zone, cur_tool\WObj:=cur_wobj;
       MoveL [[83.3744, 2651.6339, -1278.3961],[ -0.00026247, 0.99914729, 0.04089058, -0.00570836], [0,0,-2,0], [9E+09, 9E+09, 9E+09, 9E+09, 9E+09, 9E+09]], cur_vel, cur_zone, cur_tool\WObj:=cur_wobj;
       MoveL [[78.3774, 2651.7607, -1278.2772],[ -0.00047649, 0.99908498, 0.04238291, -0.00571607], [0,0,-2,0], [9E+09, 9E+09, 9E+09, 9E+09, 9E+09, 9E+09]], cur_vel, cur_zone, cur_tool\WObj:=cur_wobj;
       MoveL [[73.3804, 2651.8875, -1278.1583],[ -0.00068968, 0.99902065, 0.04386926, -0.00572373], [0,0,-2,0], [9E+09, 9E+09, 9E+09, 9E+09, 9E+09, 9E+09]], cur_vel, cur_zone, cur_tool\WObj:=cur_wobj;
       MoveL [[68.3834, 2652.0143, -1278.0395],[ -0.00090202, 0.99895433, 0.04534963, -0.00573135], [0,0,-2,0], [9E+09, 9E+09, 9E+09, 9E+09, 9E+09, 9E+09]], cur_vel, cur_zone, cur_tool\WObj:=cur_wobj;
       MoveL [[63.3865, 2652.1410, -1277.9206],[ -0.00111351, 0.99888605, 0.04682402, -0.00573892], [0,0,-2,0], [9E+09, 9E+09, 9E+09, 9E+09, 9E+09, 9E+09]], cur_vel, cur_zone, cur_tool\WObj:=cur_wobj;
       MoveL [[58.3895, 2652.2678, -1277.8017],[ -0.00132416, 0.99881583, 0.04829245, -0.00574646], [0,0,-2,0], [9E+09, 9E+09, 9E+09, 9E+09, 9E+09, 9E+09]], cur_vel, cur_zone, cur_tool\WObj:=cur_wobj;
       MoveL [[53.3925, 2652.3946, -1277.6829],[ -0.00153397, 0.99874370, 0.04975492, -0.00575395], [0,0,-2,0], [9E+09, 9E+09, 9E+09, 9E+09, 9E+09, 9E+09]], cur_vel, cur_zone, cur_tool\WObj:=cur_wobj;
       MoveL [[48.3955, 2652.5214, -1277.5640],[ -0.00174294, 0.99866969, 0.05121144, -0.00576141], [0,0,-2,0], [9E+09, 9E+09, 9E+09, 9E+09, 9E+09, 9E+09]], cur_vel, cur_zone, cur_tool\WObj:=cur_wobj;
       MoveL [[43.3985, 2652.6481, -1277.4451],[ -0.00195107, 0.99859382, 0.05266202, -0.00576882], [0,0,-2,0], [9E+09, 9E+09, 9E+09, 9E+09, 9E+09, 9E+09]], cur_vel, cur_zone, cur_tool\WObj:=cur_wobj;
       MoveL [[38.4016, 2652.7749, -1277.3263],[ -0.00215836, 0.99851612, 0.05410666, -0.00577619], [0,0,-2,0], [9E+09, 9E+09, 9E+09, 9E+09, 9E+09, 9E+09]], cur_vel, cur_zone, cur_tool\WObj:=cur_wobj;
       MoveL [[33.4046, 2652.9017, -1277.2074],[ -0.00236482, 0.99843661, 0.05554537, -0.00578352], [0,0,-2,0], [9E+09, 9E+09, 9E+09, 9E+09, 9E+09, 9E+09]], cur_vel, cur_zone, cur_tool\WObj:=cur_wobj;
       MoveL [[28.4076, 2653.0285, -1277.0885],[ -0.00257044, 0.99835532, 0.05697817, -0.00579081], [0,0,-2,0], [9E+09, 9E+09, 9E+09, 9E+09, 9E+09, 9E+09]], cur_vel, cur_zone, cur_tool\WObj:=cur_wobj;
       MoveL [[23.4106, 2653.1552, -1276.9696],[ -0.00277522, 0.99827227, 0.05840506, -0.00579806], [0,0,-2,0], [9E+09, 9E+09, 9E+09, 9E+09, 9E+09, 9E+09]], cur_vel, cur_zone, cur_tool\WObj:=cur_wobj;
       MoveL [[18.4136, 2653.2820, -1276.8508],[ -0.00297917, 0.99818749, 0.05982605, -0.00580527], [0,0,-2,0], [9E+09, 9E+09, 9E+09, 9E+09, 9E+09, 9E+09]], cur_vel, cur_zone, cur_tool\WObj:=cur_wobj;
       MoveL [[13.4167, 2653.4088, -1276.7319],[ -0.00318228, 0.99810100, 0.06124116, -0.00581244], [0,0,-2,0], [9E+09, 9E+09, 9E+09, 9E+09, 9E+09, 9E+09]], cur_vel, cur_zone, cur_tool\WObj:=cur_wobj;
       MoveL [[8.4197, 2653.5356, -1276.6130],[ -0.00338456, 0.99801283, 0.06265039, -0.00581957], [0,0,-2,0], [9E+09, 9E+09, 9E+09, 9E+09, 9E+09, 9E+09]], cur_vel, cur_zone, cur_tool\WObj:=cur_wobj;
       MoveL [[3.4227, 2653.6623, -1276.4942],[ -0.00358602, 0.99792300, 0.06405375, -0.00582666], [0,0,-2,0], [9E+09, 9E+09, 9E+09, 9E+09, 9E+09, 9E+09]], cur_vel, cur_zone, cur_tool\WObj:=cur_wobj;
       MoveL [[-1.5743, 2653.7891, -1276.3753],[ -0.00378664, 0.99783153, 0.06545125, -0.00583371], [0,0,-2,0], [9E+09, 9E+09, 9E+09, 9E+09, 9E+09, 9E+09]], cur_vel, cur_zone, cur_tool\WObj:=cur_wobj;
       MoveL [[-6.5712, 2653.9159, -1276.2564],[ -0.00398644, 0.99773845, 0.06684292, -0.00584072], [0,0,-2,0], [9E+09, 9E+09, 9E+09, 9E+09, 9E+09, 9E+09]], cur_vel, cur_zone, cur_tool\WObj:=cur_wobj;
       MoveL [[-11.5682, 2654.0427, -1276.1376],[ -0.00418541, 0.99764379, 0.06822875, -0.00584770], [0,0,-2,0], [9E+09, 9E+09, 9E+09, 9E+09, 9E+09, 9E+09]], cur_vel, cur_zone, cur_tool\WObj:=cur_wobj;
       MoveL [[-16.5652, 2654.1694, -1276.0187],[ -0.00438356, 0.99754756, 0.06960876, -0.00585463], [0,0,-2,0], [9E+09, 9E+09, 9E+09, 9E+09, 9E+09, 9E+09]], cur_vel, cur_zone, cur_tool\WObj:=cur_wobj;
       MoveL [[-21.5622, 2654.2962, -1275.8998],[ -0.00458089, 0.99744979, 0.07098296, -0.00586152], [0,0,-2,0], [9E+09, 9E+09, 9E+09, 9E+09, 9E+09, 9E+09]], cur_vel, cur_zone, cur_tool\WObj:=cur_wobj;
       MoveL [[-26.5592, 2654.4230, -1275.7809],[ -0.00477739, 0.99735050, 0.07235138, -0.00586838], [1,0,-2,0], [9E+09, 9E+09, 9E+09, 9E+09, 9E+09, 9E+09]], cur_vel, cur_zone, cur_tool\WObj:=cur_wobj;
       MoveL [[-31.5561, 2654.5498, -1275.6621],[ -0.00497308, 0.99724972, 0.07371401, -0.00587520], [1,0,-2,0], [9E+09, 9E+09, 9E+09, 9E+09, 9E+09, 9E+09]], cur_vel, cur_zone, cur_tool\WObj:=cur_wobj;
       MoveL [[-36.5531, 2654.6765, -1275.5432],[ -0.00516795, 0.99714746, 0.07507087, -0.00588198], [1,0,-2,0], [9E+09, 9E+09, 9E+09, 9E+09, 9E+09, 9E+09]], cur_vel, cur_zone, cur_tool\WObj:=cur_wobj;
       MoveL [[-41.5501, 2654.8033, -1275.4243],[ -0.00536201, 0.99704376, 0.07642197, -0.00588872], [1,0,-2,0], [9E+09, 9E+09, 9E+09, 9E+09, 9E+09, 9E+09]], cur_vel, cur_zone, cur_tool\WObj:=cur_wobj;
       MoveL [[-46.5471, 2654.9301, -1275.3055],[ -0.00555525, 0.99693863, 0.07776734, -0.00589542], [1,0,-2,0], [9E+09, 9E+09, 9E+09, 9E+09, 9E+09, 9E+09]], cur_vel, cur_zone, cur_tool\WObj:=cur_wobj;
       MoveL [[-51.5441, 2655.0569, -1275.1866],[ -0.00574768, 0.99683209, 0.07910698, -0.00590209], [1,0,-2,0], [9E+09, 9E+09, 9E+09, 9E+09, 9E+09, 9E+09]], cur_vel, cur_zone, cur_tool\WObj:=cur_wobj;
       MoveL [[-56.5410, 2655.1836, -1275.0677],[ -0.00593930, 0.99672417, 0.08044091, -0.00590872], [1,0,-2,0], [9E+09, 9E+09, 9E+09, 9E+09, 9E+09, 9E+09]], cur_vel, cur_zone, cur_tool\WObj:=cur_wobj;
       MoveL [[-61.5380, 2655.3104, -1274.9489],[ -0.00613011, 0.99661489, 0.08176914, -0.00591531], [1,0,-2,0], [9E+09, 9E+09, 9E+09, 9E+09, 9E+09, 9E+09]], cur_vel, cur_zone, cur_tool\WObj:=cur_wobj;
       MoveL [[-66.5350, 2655.4372, -1274.8300],[ -0.00632012, 0.99650427, 0.08309169, -0.00592186], [1,0,-2,0], [9E+09, 9E+09, 9E+09, 9E+09, 9E+09, 9E+09]], cur_vel, cur_zone, cur_tool\WObj:=cur_wobj;
       MoveL [[-71.5320, 2655.5640, -1274.7111],[ -0.00650932, 0.99639233, 0.08440857, -0.00592838], [1,0,-2,0], [9E+09, 9E+09, 9E+09, 9E+09, 9E+09, 9E+09]], cur_vel, cur_zone, cur_tool\WObj:=cur_wobj;
       MoveL [[-76.5290, 2655.6907, -1274.5922],[ -0.00669772, 0.99627909, 0.08571980, -0.00593486], [1,0,-2,0], [9E+09, 9E+09, 9E+09, 9E+09, 9E+09, 9E+09]], cur_vel, cur_zone, cur_tool\WObj:=cur_wobj;
       MoveL [[-81.5259, 2655.8175, -1274.4734],[ -0.00688532, 0.99616458, 0.08702539, -0.00594131], [1,0,-2,0], [9E+09, 9E+09, 9E+09, 9E+09, 9E+09, 9E+09]], cur_vel, cur_zone, cur_tool\WObj:=cur_wobj;
       MoveL [[-86.5229, 2655.9443, -1274.3545],[ -0.00707213, 0.99604881, 0.08832537, -0.00594771], [1,0,-2,0], [9E+09, 9E+09, 9E+09, 9E+09, 9E+09, 9E+09]], cur_vel, cur_zone, cur_tool\WObj:=cur_wobj;
       MoveL [[-91.5199, 2656.0711, -1274.2356],[ -0.00725814, 0.99593181, 0.08961973, -0.00595409], [1,0,-2,0], [9E+09, 9E+09, 9E+09, 9E+09, 9E+09, 9E+09]], cur_vel, cur_zone, cur_tool\WObj:=cur_wobj;
       MoveL [[-96.5169, 2656.1978, -1274.1168],[ -0.00744336, 0.99581359, 0.09090851, -0.00596042], [1,0,-2,0], [9E+09, 9E+09, 9E+09, 9E+09, 9E+09, 9E+09]], cur_vel, cur_zone, cur_tool\WObj:=cur_wobj;
       MoveL [[-101.5138, 2656.3246, -1273.9979],[ -0.00762778, 0.99569418, 0.09219172, -0.00596672], [1,0,-2,0], [9E+09, 9E+09, 9E+09, 9E+09, 9E+09, 9E+09]], cur_vel, cur_zone, cur_tool\WObj:=cur_wobj;
       MoveL [[-106.5108, 2656.4514, -1273.8790],[ -0.00781142, 0.99557359, 0.09346937, -0.00597299], [1,0,-2,0], [9E+09, 9E+09, 9E+09, 9E+09, 9E+09, 9E+09]], cur_vel, cur_zone, cur_tool\WObj:=cur_wobj;
       MoveL [[-111.5078, 2656.5782, -1273.7601],[ -0.00799427, 0.99545185, 0.09474149, -0.00597922], [1,0,-2,0], [9E+09, 9E+09, 9E+09, 9E+09, 9E+09, 9E+09]], cur_vel, cur_zone, cur_tool\WObj:=cur_wobj;
       MoveL [[-116.5048, 2656.7049, -1273.6413],[ -0.00817634, 0.99532898, 0.09600808, -0.00598541], [1,0,-2,0], [9E+09, 9E+09, 9E+09, 9E+09, 9E+09, 9E+09]], cur_vel, cur_zone, cur_tool\WObj:=cur_wobj;
       MoveL [[-121.5018, 2656.8317, -1273.5224],[ -0.00835763, 0.99520498, 0.09726916, -0.00599157], [1,0,-2,0], [9E+09, 9E+09, 9E+09, 9E+09, 9E+09, 9E+09]], cur_vel, cur_zone, cur_tool\WObj:=cur_wobj;
       MoveL [[-126.4987, 2656.9585, -1273.4035],[ -0.00853813, 0.99507990, 0.09852476, -0.00599769], [1,0,-2,0], [9E+09, 9E+09, 9E+09, 9E+09, 9E+09, 9E+09]], cur_vel, cur_zone, cur_tool\WObj:=cur_wobj;
       MoveL [[-131.4957, 2657.0852, -1273.2847],[ -0.00871786, 0.99495373, 0.09977489, -0.00600378], [1,0,-2,0], [9E+09, 9E+09, 9E+09, 9E+09, 9E+09, 9E+09]], cur_vel, cur_zone, cur_tool\WObj:=cur_wobj;
       MoveL [[-136.4927, 2657.2120, -1273.1658],[ -0.00889682, 0.99482651, 0.10101957, -0.00600984], [1,0,-2,0], [9E+09, 9E+09, 9E+09, 9E+09, 9E+09, 9E+09]], cur_vel, cur_zone, cur_tool\WObj:=cur_wobj;
       MoveL [[-141.4897, 2657.3388, -1273.0469],[ -0.00907500, 0.99469824, 0.10225881, -0.00601586], [1,0,-2,0], [9E+09, 9E+09, 9E+09, 9E+09, 9E+09, 9E+09]], cur_vel, cur_zone, cur_tool\WObj:=cur_wobj;
       MoveL [[-146.4867, 2657.4656, -1272.9281],[ -0.00925242, 0.99456895, 0.10349264, -0.00602185], [1,0,-2,0], [9E+09, 9E+09, 9E+09, 9E+09, 9E+09, 9E+09]], cur_vel, cur_zone, cur_tool\WObj:=cur_wobj;
       MoveL [[-151.4836, 2657.5923, -1272.8092],[ -0.00942906, 0.99443866, 0.10472106, -0.00602780], [1,0,-2,0], [9E+09, 9E+09, 9E+09, 9E+09, 9E+09, 9E+09]], cur_vel, cur_zone, cur_tool\WObj:=cur_wobj;
       MoveL [[-156.4806, 2657.7191, -1272.6903],[ -0.00960495, 0.99430739, 0.10594411, -0.00603372], [1,0,-2,0], [9E+09, 9E+09, 9E+09, 9E+09, 9E+09, 9E+09]], cur_vel, cur_zone, cur_tool\WObj:=cur_wobj;
       MoveL [[-161.4776, 2657.8459, -1272.5714],[ -0.00978007, 0.99417515, 0.10716180, -0.00603961], [1,0,-2,0], [9E+09, 9E+09, 9E+09, 9E+09, 9E+09, 9E+09]], cur_vel, cur_zone, cur_tool\WObj:=cur_wobj;
       MoveL [[-166.4746, 2657.9727, -1272.4526],[ -0.00995443, 0.99404195, 0.10837414, -0.00604546], [1,0,-2,0], [9E+09, 9E+09, 9E+09, 9E+09, 9E+09, 9E+09]], cur_vel, cur_zone, cur_tool\WObj:=cur_wobj;
       MoveL [[-171.4716, 2658.0994, -1272.3337],[ -0.01012803, 0.99390783, 0.10958116, -0.00605128], [1,0,-2,0], [9E+09, 9E+09, 9E+09, 9E+09, 9E+09, 9E+09]], cur_vel, cur_zone, cur_tool\WObj:=cur_wobj;
       MoveL [[-176.4685, 2658.2262, -1272.2148],[ -0.01030088, 0.99377279, 0.11078287, -0.00605707], [1,0,-2,0], [9E+09, 9E+09, 9E+09, 9E+09, 9E+09, 9E+09]], cur_vel, cur_zone, cur_tool\WObj:=cur_wobj;
       MoveL [[-181.4655, 2658.3530, -1272.0960],[ -0.01047298, 0.99363685, 0.11197929, -0.00606282], [1,0,-2,0], [9E+09, 9E+09, 9E+09, 9E+09, 9E+09, 9E+09]], cur_vel, cur_zone, cur_tool\WObj:=cur_wobj;
       MoveL [[-186.4625, 2658.4798, -1271.9771],[ -0.01064433, 0.99350004, 0.11317045, -0.00606854], [1,0,-2,0], [9E+09, 9E+09, 9E+09, 9E+09, 9E+09, 9E+09]], cur_vel, cur_zone, cur_tool\WObj:=cur_wobj;
       MoveL [[-191.4595, 2658.6065, -1271.8582],[ -0.01081493, 0.99336235, 0.11435635, -0.00607423], [1,0,-2,0], [9E+09, 9E+09, 9E+09, 9E+09, 9E+09, 9E+09]], cur_vel, cur_zone, cur_tool\WObj:=cur_wobj;
       MoveL [[-196.4564, 2658.7333, -1271.7394],[ -0.01098479, 0.99322382, 0.11553703, -0.00607989], [1,0,-2,0], [9E+09, 9E+09, 9E+09, 9E+09, 9E+09, 9E+09]], cur_vel, cur_zone, cur_tool\WObj:=cur_wobj;
       MoveL [[-201.4534, 2658.8601, -1271.6205],[ -0.01115391, 0.99308446, 0.11671249, -0.00608551], [1,0,-2,0], [9E+09, 9E+09, 9E+09, 9E+09, 9E+09, 9E+09]], cur_vel, cur_zone, cur_tool\WObj:=cur_wobj;
       MoveL [[-206.4504, 2658.9869, -1271.5016],[ -0.01132229, 0.99294429, 0.11788277, -0.00609110], [1,0,-2,0], [9E+09, 9E+09, 9E+09, 9E+09, 9E+09, 9E+09]], cur_vel, cur_zone, cur_tool\WObj:=cur_wobj;
       MoveL [[-211.4474, 2659.1136, -1271.3827],[ -0.01148993, 0.99280331, 0.11904787, -0.00609667], [1,0,-2,0], [9E+09, 9E+09, 9E+09, 9E+09, 9E+09, 9E+09]], cur_vel, cur_zone, cur_tool\WObj:=cur_wobj;
       MoveL [[-216.4444, 2659.2404, -1271.2639],[ -0.01165684, 0.99266155, 0.12020782, -0.00610220], [1,0,-2,0], [9E+09, 9E+09, 9E+09, 9E+09, 9E+09, 9E+09]], cur_vel, cur_zone, cur_tool\WObj:=cur_wobj;
       MoveL [[-221.4413, 2659.3672, -1271.1450],[ -0.01182302, 0.99251903, 0.12136264, -0.00610769], [1,0,-2,0], [9E+09, 9E+09, 9E+09, 9E+09, 9E+09, 9E+09]], cur_vel, cur_zone, cur_tool\WObj:=cur_wobj;
       MoveL [[-226.4383, 2659.4940, -1271.0261],[ -0.01198847, 0.99237575, 0.12251234, -0.00611316], [1,0,-2,0], [9E+09, 9E+09, 9E+09, 9E+09, 9E+09, 9E+09]], cur_vel, cur_zone, cur_tool\WObj:=cur_wobj;
       MoveL [[-231.4353, 2659.6207, -1270.9073],[ -0.01215320, 0.99223174, 0.12365695, -0.00611860], [1,0,-2,0], [9E+09, 9E+09, 9E+09, 9E+09, 9E+09, 9E+09]], cur_vel, cur_zone, cur_tool\WObj:=cur_wobj;
       MoveL [[-236.4323, 2659.7475, -1270.7884],[ -0.01231720, 0.99208700, 0.12479649, -0.00612400], [1,0,-2,0], [9E+09, 9E+09, 9E+09, 9E+09, 9E+09, 9E+09]], cur_vel, cur_zone, cur_tool\WObj:=cur_wobj;
       MoveL [[-241.4293, 2659.8743, -1270.6695],[ -0.01248049, 0.99194156, 0.12593097, -0.00612938], [1,0,-2,0], [9E+09, 9E+09, 9E+09, 9E+09, 9E+09, 9E+09]], cur_vel, cur_zone, cur_tool\WObj:=cur_wobj;
       MoveL [[-246.4262, 2660.0011, -1270.5507],[ -0.01264305, 0.99179543, 0.12706042, -0.00613472], [1,0,-2,0], [9E+09, 9E+09, 9E+09, 9E+09, 9E+09, 9E+09]], cur_vel, cur_zone, cur_tool\WObj:=cur_wobj;
       MoveL [[-251.4232, 2660.1278, -1270.4318],[ -0.01280491, 0.99164862, 0.12818486, -0.00614004], [1,0,-2,0], [9E+09, 9E+09, 9E+09, 9E+09, 9E+09, 9E+09]], cur_vel, cur_zone, cur_tool\WObj:=cur_wobj;
       MoveL [[-256.4202, 2660.2546, -1270.3129],[ -0.01296605, 0.99150114, 0.12930430, -0.00614532], [1,0,-2,0], [9E+09, 9E+09, 9E+09, 9E+09, 9E+09, 9E+09]], cur_vel, cur_zone, cur_tool\WObj:=cur_wobj;
       MoveL [[-258.5065, 2660.3075, -1270.2633],[ -0.01303312, 0.99143938, 0.12977021, -0.00614756], [1,0,-2,0], [9E+09, 9E+09, 9E+09, 9E+09, 9E+09, 9E+09]], cur_vel, cur_zone, cur_tool\WObj:=cur_wobj;

       ! Processing surface number: 6

       MoveL [[-262.5537, 2659.3085, -1273.0242],[ -0.01303312, 0.99143938, 0.12977021, -0.00614756], [1,0,-2,0], [9E+09, 9E+09, 9E+09, 9E+09, 9E+09, 9E+09]], cur_vel, cur_zone, cur_tool\WObj:=cur_wobj;
       MoveL [[-266.6009, 2658.3096, -1275.7850],[ -0.01303312, 0.99143938, 0.12977021, -0.00614756], [1,0,-2,0], [9E+09, 9E+09, 9E+09, 9E+09, 9E+09, 9E+09]], cur_vel, cur_zone, cur_tool\WObj:=cur_wobj;
       MoveL [[-270.6480, 2657.3106, -1278.5459],[ -0.01303312, 0.99143938, 0.12977021, -0.00614756], [1,0,-2,0], [9E+09, 9E+09, 9E+09, 9E+09, 9E+09, 9E+09]], cur_vel, cur_zone, cur_tool\WObj:=cur_wobj;
       MoveL [[-274.6952, 2656.3116, -1281.3068],[ -0.01303312, 0.99143938, 0.12977021, -0.00614756], [1,0,-2,0], [9E+09, 9E+09, 9E+09, 9E+09, 9E+09, 9E+09]], cur_vel, cur_zone, cur_tool\WObj:=cur_wobj;
       MoveL [[-278.7424, 2655.3126, -1284.0676],[ -0.01303312, 0.99143938, 0.12977021, -0.00614756], [1,0,-2,0], [9E+09, 9E+09, 9E+09, 9E+09, 9E+09, 9E+09]], cur_vel, cur_zone, cur_tool\WObj:=cur_wobj;
       MoveL [[-282.7895, 2654.3136, -1286.8285],[ -0.01303312, 0.99143938, 0.12977021, -0.00614756], [1,0,-2,0], [9E+09, 9E+09, 9E+09, 9E+09, 9E+09, 9E+09]], cur_vel, cur_zone, cur_tool\WObj:=cur_wobj;
       MoveL [[-286.8367, 2653.3146, -1289.5894],[ -0.01303312, 0.99143938, 0.12977021, -0.00614756], [1,0,-2,0], [9E+09, 9E+09, 9E+09, 9E+09, 9E+09, 9E+09]], cur_vel, cur_zone, cur_tool\WObj:=cur_wobj;
       MoveL [[-290.8839, 2652.3156, -1292.3503],[ -0.01303312, 0.99143938, 0.12977021, -0.00614756], [1,0,-2,0], [9E+09, 9E+09, 9E+09, 9E+09, 9E+09, 9E+09]], cur_vel, cur_zone, cur_tool\WObj:=cur_wobj;
       MoveL [[-294.9311, 2651.3166, -1295.1111],[ -0.01303312, 0.99143938, 0.12977021, -0.00614756], [1,0,-2,0], [9E+09, 9E+09, 9E+09, 9E+09, 9E+09, 9E+09]], cur_vel, cur_zone, cur_tool\WObj:=cur_wobj;
       MoveL [[-298.9782, 2650.3176, -1297.8720],[ -0.01303312, 0.99143938, 0.12977021, -0.00614756], [1,0,-2,0], [9E+09, 9E+09, 9E+09, 9E+09, 9E+09, 9E+09]], cur_vel, cur_zone, cur_tool\WObj:=cur_wobj;
       MoveL [[-303.0254, 2649.3186, -1300.6329],[ -0.01303312, 0.99143938, 0.12977021, -0.00614756], [1,0,-2,0], [9E+09, 9E+09, 9E+09, 9E+09, 9E+09, 9E+09]], cur_vel, cur_zone, cur_tool\WObj:=cur_wobj;
       MoveL [[-307.0726, 2648.3196, -1303.3937],[ -0.01303312, 0.99143938, 0.12977021, -0.00614756], [1,0,-2,0], [9E+09, 9E+09, 9E+09, 9E+09, 9E+09, 9E+09]], cur_vel, cur_zone, cur_tool\WObj:=cur_wobj;
       MoveL [[-311.1197, 2647.3206, -1306.1546],[ -0.01303312, 0.99143938, 0.12977021, -0.00614756], [1,0,-2,0], [9E+09, 9E+09, 9E+09, 9E+09, 9E+09, 9E+09]], cur_vel, cur_zone, cur_tool\WObj:=cur_wobj;
       MoveL [[-315.1669, 2646.3216, -1308.9155],[ -0.01303312, 0.99143938, 0.12977021, -0.00614756], [1,0,-2,0], [9E+09, 9E+09, 9E+09, 9E+09, 9E+09, 9E+09]], cur_vel, cur_zone, cur_tool\WObj:=cur_wobj;
       MoveL [[-319.2141, 2645.3226, -1311.6764],[ -0.01303312, 0.99143938, 0.12977021, -0.00614756], [1,0,-2,0], [9E+09, 9E+09, 9E+09, 9E+09, 9E+09, 9E+09]], cur_vel, cur_zone, cur_tool\WObj:=cur_wobj;
       MoveL [[-323.2613, 2644.3236, -1314.4372],[ -0.01303312, 0.99143938, 0.12977021, -0.00614756], [1,0,-2,0], [9E+09, 9E+09, 9E+09, 9E+09, 9E+09, 9E+09]], cur_vel, cur_zone, cur_tool\WObj:=cur_wobj;
       MoveL [[-327.3084, 2643.3246, -1317.1981],[ -0.01303312, 0.99143938, 0.12977021, -0.00614756], [1,0,-2,0], [9E+09, 9E+09, 9E+09, 9E+09, 9E+09, 9E+09]], cur_vel, cur_zone, cur_tool\WObj:=cur_wobj;
       MoveL [[-331.3556, 2642.3256, -1319.9590],[ -0.01303312, 0.99143938, 0.12977021, -0.00614756], [1,0,-2,0], [9E+09, 9E+09, 9E+09, 9E+09, 9E+09, 9E+09]], cur_vel, cur_zone, cur_tool\WObj:=cur_wobj;
       MoveL [[-335.4028, 2641.3266, -1322.7199],[ -0.01303312, 0.99143938, 0.12977021, -0.00614756], [1,0,-2,0], [9E+09, 9E+09, 9E+09, 9E+09, 9E+09, 9E+09]], cur_vel, cur_zone, cur_tool\WObj:=cur_wobj;
       MoveL [[-339.4499, 2640.3276, -1325.4807],[ -0.01303312, 0.99143938, 0.12977021, -0.00614756], [1,0,-2,0], [9E+09, 9E+09, 9E+09, 9E+09, 9E+09, 9E+09]], cur_vel, cur_zone, cur_tool\WObj:=cur_wobj;
       MoveL [[-343.4971, 2639.3286, -1328.2416],[ -0.01303312, 0.99143938, 0.12977021, -0.00614756], [1,0,-2,0], [9E+09, 9E+09, 9E+09, 9E+09, 9E+09, 9E+09]], cur_vel, cur_zone, cur_tool\WObj:=cur_wobj;
       MoveL [[-347.5443, 2638.3296, -1331.0025],[ -0.01303312, 0.99143938, 0.12977021, -0.00614756], [1,0,-2,0], [9E+09, 9E+09, 9E+09, 9E+09, 9E+09, 9E+09]], cur_vel, cur_zone, cur_tool\WObj:=cur_wobj;
       MoveL [[-351.5915, 2637.3306, -1333.7633],[ -0.01303312, 0.99143938, 0.12977021, -0.00614756], [1,0,-2,0], [9E+09, 9E+09, 9E+09, 9E+09, 9E+09, 9E+09]], cur_vel, cur_zone, cur_tool\WObj:=cur_wobj;
       MoveL [[-355.6386, 2636.3317, -1336.5242],[ -0.01303312, 0.99143938, 0.12977021, -0.00614756], [1,0,-2,0], [9E+09, 9E+09, 9E+09, 9E+09, 9E+09, 9E+09]], cur_vel, cur_zone, cur_tool\WObj:=cur_wobj;
       MoveL [[-359.6858, 2635.3327, -1339.2851],[ -0.01303312, 0.99143938, 0.12977021, -0.00614756], [1,0,-2,0], [9E+09, 9E+09, 9E+09, 9E+09, 9E+09, 9E+09]], cur_vel, cur_zone, cur_tool\WObj:=cur_wobj;
       MoveL [[-363.7330, 2634.3337, -1342.0460],[ -0.01303312, 0.99143938, 0.12977021, -0.00614756], [1,0,-2,0], [9E+09, 9E+09, 9E+09, 9E+09, 9E+09, 9E+09]], cur_vel, cur_zone, cur_tool\WObj:=cur_wobj;
       MoveL [[-367.7801, 2633.3347, -1344.8068],[ -0.01303312, 0.99143938, 0.12977021, -0.00614756], [1,0,-2,0], [9E+09, 9E+09, 9E+09, 9E+09, 9E+09, 9E+09]], cur_vel, cur_zone, cur_tool\WObj:=cur_wobj;
       MoveL [[-371.8273, 2632.3357, -1347.5677],[ -0.01303312, 0.99143938, 0.12977021, -0.00614756], [1,0,-2,0], [9E+09, 9E+09, 9E+09, 9E+09, 9E+09, 9E+09]], cur_vel, cur_zone, cur_tool\WObj:=cur_wobj;
       MoveL [[-375.8745, 2631.3367, -1350.3286],[ -0.01303312, 0.99143938, 0.12977021, -0.00614756], [1,0,-2,0], [9E+09, 9E+09, 9E+09, 9E+09, 9E+09, 9E+09]], cur_vel, cur_zone, cur_tool\WObj:=cur_wobj;
       MoveL [[-379.9216, 2630.3377, -1353.0894],[ -0.01303312, 0.99143938, 0.12977021, -0.00614756], [1,0,-2,0], [9E+09, 9E+09, 9E+09, 9E+09, 9E+09, 9E+09]], cur_vel, cur_zone, cur_tool\WObj:=cur_wobj;
       MoveL [[-383.9688, 2629.3387, -1355.8503],[ -0.01303312, 0.99143938, 0.12977021, -0.00614756], [1,0,-2,0], [9E+09, 9E+09, 9E+09, 9E+09, 9E+09, 9E+09]], cur_vel, cur_zone, cur_tool\WObj:=cur_wobj;
       MoveL [[-388.0160, 2628.3397, -1358.6112],[ -0.01303312, 0.99143938, 0.12977021, -0.00614756], [1,0,-2,0], [9E+09, 9E+09, 9E+09, 9E+09, 9E+09, 9E+09]], cur_vel, cur_zone, cur_tool\WObj:=cur_wobj;
       MoveL [[-392.0632, 2627.3407, -1361.3721],[ -0.01303312, 0.99143938, 0.12977021, -0.00614756], [1,0,-2,0], [9E+09, 9E+09, 9E+09, 9E+09, 9E+09, 9E+09]], cur_vel, cur_zone, cur_tool\WObj:=cur_wobj;
       MoveL [[-396.1103, 2626.3417, -1364.1329],[ -0.01303312, 0.99143938, 0.12977021, -0.00614756], [1,0,-2,0], [9E+09, 9E+09, 9E+09, 9E+09, 9E+09, 9E+09]], cur_vel, cur_zone, cur_tool\WObj:=cur_wobj;
       MoveL [[-400.1575, 2625.3427, -1366.8938],[ -0.01303312, 0.99143938, 0.12977021, -0.00614756], [1,0,-2,0], [9E+09, 9E+09, 9E+09, 9E+09, 9E+09, 9E+09]], cur_vel, cur_zone, cur_tool\WObj:=cur_wobj;
       MoveL [[-404.2047, 2624.3437, -1369.6547],[ -0.01303312, 0.99143938, 0.12977021, -0.00614756], [1,0,-2,0], [9E+09, 9E+09, 9E+09, 9E+09, 9E+09, 9E+09]], cur_vel, cur_zone, cur_tool\WObj:=cur_wobj;
       MoveL [[-408.2518, 2623.3447, -1372.4156],[ -0.01303312, 0.99143938, 0.12977021, -0.00614756], [1,0,-2,0], [9E+09, 9E+09, 9E+09, 9E+09, 9E+09, 9E+09]], cur_vel, cur_zone, cur_tool\WObj:=cur_wobj;
       MoveL [[-412.2990, 2622.3457, -1375.1764],[ -0.01303312, 0.99143938, 0.12977021, -0.00614756], [1,0,-2,0], [9E+09, 9E+09, 9E+09, 9E+09, 9E+09, 9E+09]], cur_vel, cur_zone, cur_tool\WObj:=cur_wobj;
       MoveL [[-416.3462, 2621.3467, -1377.9373],[ -0.01303312, 0.99143938, 0.12977021, -0.00614756], [1,0,-2,0], [9E+09, 9E+09, 9E+09, 9E+09, 9E+09, 9E+09]], cur_vel, cur_zone, cur_tool\WObj:=cur_wobj;
       MoveL [[-420.3934, 2620.3477, -1380.6982],[ -0.01303312, 0.99143938, 0.12977021, -0.00614756], [1,0,-2,0], [9E+09, 9E+09, 9E+09, 9E+09, 9E+09, 9E+09]], cur_vel, cur_zone, cur_tool\WObj:=cur_wobj;
       MoveL [[-424.4405, 2619.3487, -1383.4590],[ -0.01303312, 0.99143938, 0.12977021, -0.00614756], [1,0,-2,0], [9E+09, 9E+09, 9E+09, 9E+09, 9E+09, 9E+09]], cur_vel, cur_zone, cur_tool\WObj:=cur_wobj;
       MoveL [[-428.4877, 2618.3497, -1386.2199],[ -0.01303312, 0.99143938, 0.12977021, -0.00614756], [1,0,-2,0], [9E+09, 9E+09, 9E+09, 9E+09, 9E+09, 9E+09]], cur_vel, cur_zone, cur_tool\WObj:=cur_wobj;
       MoveL [[-432.5349, 2617.3507, -1388.9808],[ -0.01303312, 0.99143938, 0.12977021, -0.00614756], [1,0,-2,0], [9E+09, 9E+09, 9E+09, 9E+09, 9E+09, 9E+09]], cur_vel, cur_zone, cur_tool\WObj:=cur_wobj;
       MoveL [[-436.5820, 2616.3517, -1391.7417],[ -0.01303312, 0.99143938, 0.12977021, -0.00614756], [1,0,-2,0], [9E+09, 9E+09, 9E+09, 9E+09, 9E+09, 9E+09]], cur_vel, cur_zone, cur_tool\WObj:=cur_wobj;
       MoveL [[-440.6292, 2615.3527, -1394.5025],[ -0.01303312, 0.99143938, 0.12977021, -0.00614756], [1,0,-2,0], [9E+09, 9E+09, 9E+09, 9E+09, 9E+09, 9E+09]], cur_vel, cur_zone, cur_tool\WObj:=cur_wobj;
       MoveL [[-444.6764, 2614.3538, -1397.2634],[ -0.01303312, 0.99143938, 0.12977021, -0.00614756], [1,0,-2,0], [9E+09, 9E+09, 9E+09, 9E+09, 9E+09, 9E+09]], cur_vel, cur_zone, cur_tool\WObj:=cur_wobj;
       MoveL [[-448.7236, 2613.3548, -1400.0243],[ -0.01303312, 0.99143938, 0.12977021, -0.00614756], [1,0,-2,0], [9E+09, 9E+09, 9E+09, 9E+09, 9E+09, 9E+09]], cur_vel, cur_zone, cur_tool\WObj:=cur_wobj;
       MoveL [[-452.7707, 2612.3558, -1402.7851],[ -0.01303312, 0.99143938, 0.12977021, -0.00614756], [1,0,-2,0], [9E+09, 9E+09, 9E+09, 9E+09, 9E+09, 9E+09]], cur_vel, cur_zone, cur_tool\WObj:=cur_wobj;
       MoveL [[-456.8179, 2611.3568, -1405.5460],[ -0.01303312, 0.99143938, 0.12977021, -0.00614756], [1,0,-2,0], [9E+09, 9E+09, 9E+09, 9E+09, 9E+09, 9E+09]], cur_vel, cur_zone, cur_tool\WObj:=cur_wobj;
       MoveL [[-460.8651, 2610.3578, -1408.3069],[ -0.01303312, 0.99143938, 0.12977021, -0.00614756], [1,0,-2,0], [9E+09, 9E+09, 9E+09, 9E+09, 9E+09, 9E+09]], cur_vel, cur_zone, cur_tool\WObj:=cur_wobj;
       MoveL [[-464.9122, 2609.3588, -1411.0678],[ -0.01303312, 0.99143938, 0.12977021, -0.00614756], [1,0,-2,0], [9E+09, 9E+09, 9E+09, 9E+09, 9E+09, 9E+09]], cur_vel, cur_zone, cur_tool\WObj:=cur_wobj;
       MoveL [[-468.9594, 2608.3598, -1413.8286],[ -0.01303312, 0.99143938, 0.12977021, -0.00614756], [1,0,-2,0], [9E+09, 9E+09, 9E+09, 9E+09, 9E+09, 9E+09]], cur_vel, cur_zone, cur_tool\WObj:=cur_wobj;
       MoveL [[-473.0066, 2607.3608, -1416.5895],[ -0.01303312, 0.99143938, 0.12977021, -0.00614756], [1,0,-2,0], [9E+09, 9E+09, 9E+09, 9E+09, 9E+09, 9E+09]], cur_vel, cur_zone, cur_tool\WObj:=cur_wobj;
       MoveL [[-477.0538, 2606.3618, -1419.3504],[ -0.01303312, 0.99143938, 0.12977021, -0.00614756], [1,0,-2,0], [9E+09, 9E+09, 9E+09, 9E+09, 9E+09, 9E+09]], cur_vel, cur_zone, cur_tool\WObj:=cur_wobj;
       MoveL [[-481.1009, 2605.3628, -1422.1112],[ -0.01303312, 0.99143938, 0.12977021, -0.00614756], [1,0,-2,0], [9E+09, 9E+09, 9E+09, 9E+09, 9E+09, 9E+09]], cur_vel, cur_zone, cur_tool\WObj:=cur_wobj;
       MoveL [[-485.1481, 2604.3638, -1424.8721],[ -0.01303312, 0.99143938, 0.12977021, -0.00614756], [1,0,-2,0], [9E+09, 9E+09, 9E+09, 9E+09, 9E+09, 9E+09]], cur_vel, cur_zone, cur_tool\WObj:=cur_wobj;
       MoveL [[-489.1953, 2603.3648, -1427.6330],[ -0.01303312, 0.99143938, 0.12977021, -0.00614756], [1,0,-2,0], [9E+09, 9E+09, 9E+09, 9E+09, 9E+09, 9E+09]], cur_vel, cur_zone, cur_tool\WObj:=cur_wobj;
       MoveL [[-492.1500, 2602.6355, -1429.6486],[ -0.01303312, 0.99143938, 0.12977021, -0.00614756], [1,0,-2,0], [9E+09, 9E+09, 9E+09, 9E+09, 9E+09, 9E+09]], cur_vel, cur_zone, cur_tool\WObj:=cur_wobj;

       ! Processing surface number: 7

       MoveL [[-496.4405, 2601.5595, -1431.9795],[ -0.01303312, 0.99143938, 0.12977022, -0.00614756], [1,0,-2,0], [9E+09, 9E+09, 9E+09, 9E+09, 9E+09, 9E+09]], cur_vel, cur_zone, cur_tool\WObj:=cur_wobj;
       MoveL [[-500.7311, 2600.4835, -1434.3104],[ -0.01303312, 0.99143938, 0.12977022, -0.00614756], [1,0,-2,0], [9E+09, 9E+09, 9E+09, 9E+09, 9E+09, 9E+09]], cur_vel, cur_zone, cur_tool\WObj:=cur_wobj;
       MoveL [[-505.0217, 2599.4074, -1436.6413],[ -0.01303312, 0.99143938, 0.12977022, -0.00614756], [1,0,-2,0], [9E+09, 9E+09, 9E+09, 9E+09, 9E+09, 9E+09]], cur_vel, cur_zone, cur_tool\WObj:=cur_wobj;
       MoveL [[-509.3123, 2598.3314, -1438.9722],[ -0.01303312, 0.99143938, 0.12977022, -0.00614756], [1,0,-2,0], [9E+09, 9E+09, 9E+09, 9E+09, 9E+09, 9E+09]], cur_vel, cur_zone, cur_tool\WObj:=cur_wobj;
       MoveL [[-513.6029, 2597.2554, -1441.3032],[ -0.01303312, 0.99143938, 0.12977022, -0.00614756], [1,0,-2,0], [9E+09, 9E+09, 9E+09, 9E+09, 9E+09, 9E+09]], cur_vel, cur_zone, cur_tool\WObj:=cur_wobj;
       MoveL [[-517.8934, 2596.1794, -1443.6341],[ -0.01303312, 0.99143938, 0.12977022, -0.00614756], [1,0,-2,0], [9E+09, 9E+09, 9E+09, 9E+09, 9E+09, 9E+09]], cur_vel, cur_zone, cur_tool\WObj:=cur_wobj;
       MoveL [[-522.1840, 2595.1034, -1445.9650],[ -0.01303312, 0.99143938, 0.12977022, -0.00614756], [1,0,-2,0], [9E+09, 9E+09, 9E+09, 9E+09, 9E+09, 9E+09]], cur_vel, cur_zone, cur_tool\WObj:=cur_wobj;
       MoveL [[-526.4746, 2594.0274, -1448.2959],[ -0.01303312, 0.99143938, 0.12977022, -0.00614756], [1,0,-2,0], [9E+09, 9E+09, 9E+09, 9E+09, 9E+09, 9E+09]], cur_vel, cur_zone, cur_tool\WObj:=cur_wobj;
       MoveL [[-530.7652, 2592.9514, -1450.6268],[ -0.01303312, 0.99143938, 0.12977022, -0.00614756], [1,0,-2,0], [9E+09, 9E+09, 9E+09, 9E+09, 9E+09, 9E+09]], cur_vel, cur_zone, cur_tool\WObj:=cur_wobj;
       MoveL [[-535.0558, 2591.8754, -1452.9577],[ -0.01303312, 0.99143938, 0.12977022, -0.00614756], [1,0,-2,0], [9E+09, 9E+09, 9E+09, 9E+09, 9E+09, 9E+09]], cur_vel, cur_zone, cur_tool\WObj:=cur_wobj;
       MoveL [[-539.3463, 2590.7994, -1455.2886],[ -0.01303312, 0.99143938, 0.12977022, -0.00614756], [1,0,-2,0], [9E+09, 9E+09, 9E+09, 9E+09, 9E+09, 9E+09]], cur_vel, cur_zone, cur_tool\WObj:=cur_wobj;
       MoveL [[-543.6369, 2589.7234, -1457.6195],[ -0.01303312, 0.99143938, 0.12977022, -0.00614756], [1,0,-2,0], [9E+09, 9E+09, 9E+09, 9E+09, 9E+09, 9E+09]], cur_vel, cur_zone, cur_tool\WObj:=cur_wobj;
       MoveL [[-547.9275, 2588.6474, -1459.9504],[ -0.01303312, 0.99143938, 0.12977022, -0.00614756], [1,0,-2,0], [9E+09, 9E+09, 9E+09, 9E+09, 9E+09, 9E+09]], cur_vel, cur_zone, cur_tool\WObj:=cur_wobj;
       MoveL [[-552.2181, 2587.5714, -1462.2813],[ -0.01303312, 0.99143938, 0.12977022, -0.00614756], [1,0,-2,0], [9E+09, 9E+09, 9E+09, 9E+09, 9E+09, 9E+09]], cur_vel, cur_zone, cur_tool\WObj:=cur_wobj;
       MoveL [[-556.5087, 2586.4954, -1464.6122],[ -0.01303312, 0.99143938, 0.12977022, -0.00614756], [1,0,-2,0], [9E+09, 9E+09, 9E+09, 9E+09, 9E+09, 9E+09]], cur_vel, cur_zone, cur_tool\WObj:=cur_wobj;
       MoveL [[-560.7992, 2585.4193, -1466.9431],[ -0.01303312, 0.99143938, 0.12977022, -0.00614756], [1,0,-2,0], [9E+09, 9E+09, 9E+09, 9E+09, 9E+09, 9E+09]], cur_vel, cur_zone, cur_tool\WObj:=cur_wobj;
       MoveL [[-565.0898, 2584.3433, -1469.2740],[ -0.01303312, 0.99143938, 0.12977022, -0.00614756], [1,0,-2,0], [9E+09, 9E+09, 9E+09, 9E+09, 9E+09, 9E+09]], cur_vel, cur_zone, cur_tool\WObj:=cur_wobj;
       MoveL [[-569.3804, 2583.2673, -1471.6050],[ -0.01303312, 0.99143938, 0.12977022, -0.00614756], [1,0,-2,0], [9E+09, 9E+09, 9E+09, 9E+09, 9E+09, 9E+09]], cur_vel, cur_zone, cur_tool\WObj:=cur_wobj;
       MoveL [[-573.6710, 2582.1913, -1473.9359],[ -0.01303312, 0.99143938, 0.12977022, -0.00614756], [1,0,-2,0], [9E+09, 9E+09, 9E+09, 9E+09, 9E+09, 9E+09]], cur_vel, cur_zone, cur_tool\WObj:=cur_wobj;
       MoveL [[-577.9616, 2581.1153, -1476.2668],[ -0.01303312, 0.99143938, 0.12977022, -0.00614756], [1,0,-2,0], [9E+09, 9E+09, 9E+09, 9E+09, 9E+09, 9E+09]], cur_vel, cur_zone, cur_tool\WObj:=cur_wobj;
       MoveL [[-582.2521, 2580.0393, -1478.5977],[ -0.01303312, 0.99143938, 0.12977022, -0.00614756], [1,0,-2,0], [9E+09, 9E+09, 9E+09, 9E+09, 9E+09, 9E+09]], cur_vel, cur_zone, cur_tool\WObj:=cur_wobj;
       MoveL [[-586.5427, 2578.9633, -1480.9286],[ -0.01303312, 0.99143938, 0.12977022, -0.00614756], [1,0,-2,0], [9E+09, 9E+09, 9E+09, 9E+09, 9E+09, 9E+09]], cur_vel, cur_zone, cur_tool\WObj:=cur_wobj;
       MoveL [[-590.8333, 2577.8873, -1483.2595],[ -0.01303312, 0.99143938, 0.12977022, -0.00614756], [1,0,-2,0], [9E+09, 9E+09, 9E+09, 9E+09, 9E+09, 9E+09]], cur_vel, cur_zone, cur_tool\WObj:=cur_wobj;
       MoveL [[-592.2887, 2577.5223, -1484.0502],[ -0.01303312, 0.99143938, 0.12977022, -0.00614756], [1,0,-2,0], [9E+09, 9E+09, 9E+09, 9E+09, 9E+09, 9E+09]], cur_vel, cur_zone, cur_tool\WObj:=cur_wobj;

       ! Processing surface number: 8

       MoveL [[-592.2887, 2577.5223, -1479.0502],[ -0.01303312, 0.99143938, 0.12977022, -0.00614756], [1,0,-2,0], [9E+09, 9E+09, 9E+09, 9E+09, 9E+09, 9E+09]], cur_vel, cur_zone, cur_tool\WObj:=cur_wobj;
       MoveL [[-592.2887, 2577.5223, -1474.0502],[ -0.01303312, 0.99143938, 0.12977022, -0.00614756], [1,0,-2,0], [9E+09, 9E+09, 9E+09, 9E+09, 9E+09, 9E+09]], cur_vel, cur_zone, cur_tool\WObj:=cur_wobj;
       MoveL [[-592.2887, 2577.5223, -1469.0502],[ -0.01303312, 0.99143938, 0.12977022, -0.00614756], [1,0,-2,0], [9E+09, 9E+09, 9E+09, 9E+09, 9E+09, 9E+09]], cur_vel, cur_zone, cur_tool\WObj:=cur_wobj;
       MoveL [[-592.2887, 2577.5223, -1464.0502],[ -0.01303312, 0.99143938, 0.12977022, -0.00614756], [1,0,-2,0], [9E+09, 9E+09, 9E+09, 9E+09, 9E+09, 9E+09]], cur_vel, cur_zone, cur_tool\WObj:=cur_wobj;
       MoveL [[-592.2887, 2577.5223, -1459.0502],[ -0.01303312, 0.99143938, 0.12977022, -0.00614756], [1,0,-2,0], [9E+09, 9E+09, 9E+09, 9E+09, 9E+09, 9E+09]], cur_vel, cur_zone, cur_tool\WObj:=cur_wobj;
       MoveL [[-592.2887, 2577.5223, -1454.0502],[ -0.01303312, 0.99143938, 0.12977022, -0.00614756], [1,0,-2,0], [9E+09, 9E+09, 9E+09, 9E+09, 9E+09, 9E+09]], cur_vel, cur_zone, cur_tool\WObj:=cur_wobj;
       MoveL [[-592.2887, 2577.5223, -1449.0502],[ -0.01303312, 0.99143938, 0.12977022, -0.00614756], [1,0,-2,0], [9E+09, 9E+09, 9E+09, 9E+09, 9E+09, 9E+09]], cur_vel, cur_zone, cur_tool\WObj:=cur_wobj;
       MoveL [[-592.2887, 2577.5223, -1444.0502],[ -0.01303312, 0.99143938, 0.12977022, -0.00614756], [1,0,-2,0], [9E+09, 9E+09, 9E+09, 9E+09, 9E+09, 9E+09]], cur_vel, cur_zone, cur_tool\WObj:=cur_wobj;
       MoveL [[-592.2887, 2577.5223, -1439.0502],[ -0.01303312, 0.99143938, 0.12977022, -0.00614756], [1,0,-2,0], [9E+09, 9E+09, 9E+09, 9E+09, 9E+09, 9E+09]], cur_vel, cur_zone, cur_tool\WObj:=cur_wobj;
       MoveL [[-592.2887, 2577.5223, -1434.0502],[ -0.01303312, 0.99143938, 0.12977022, -0.00614756], [1,0,-2,0], [9E+09, 9E+09, 9E+09, 9E+09, 9E+09, 9E+09]], cur_vel, cur_zone, cur_tool\WObj:=cur_wobj;
       MoveL [[-592.2887, 2577.5223, -1429.0502],[ -0.01303312, 0.99143938, 0.12977022, -0.00614756], [1,0,-2,0], [9E+09, 9E+09, 9E+09, 9E+09, 9E+09, 9E+09]], cur_vel, cur_zone, cur_tool\WObj:=cur_wobj;
       MoveL [[-592.2887, 2577.5223, -1424.0502],[ -0.01303312, 0.99143938, 0.12977022, -0.00614756], [1,0,-2,0], [9E+09, 9E+09, 9E+09, 9E+09, 9E+09, 9E+09]], cur_vel, cur_zone, cur_tool\WObj:=cur_wobj;
       MoveL [[-592.2887, 2577.5223, -1419.0502],[ -0.01303312, 0.99143938, 0.12977022, -0.00614756], [1,0,-2,0], [9E+09, 9E+09, 9E+09, 9E+09, 9E+09, 9E+09]], cur_vel, cur_zone, cur_tool\WObj:=cur_wobj;
       MoveL [[-592.2887, 2577.5223, -1414.0502],[ -0.01303312, 0.99143938, 0.12977022, -0.00614756], [1,0,-2,0], [9E+09, 9E+09, 9E+09, 9E+09, 9E+09, 9E+09]], cur_vel, cur_zone, cur_tool\WObj:=cur_wobj;
       MoveL [[-592.2887, 2577.5223, -1409.0502],[ -0.01303312, 0.99143938, 0.12977022, -0.00614756], [1,0,-2,0], [9E+09, 9E+09, 9E+09, 9E+09, 9E+09, 9E+09]], cur_vel, cur_zone, cur_tool\WObj:=cur_wobj;
       MoveL [[-592.2887, 2577.5223, -1404.0502],[ -0.01303312, 0.99143938, 0.12977022, -0.00614756], [1,0,-2,0], [9E+09, 9E+09, 9E+09, 9E+09, 9E+09, 9E+09]], cur_vel, cur_zone, cur_tool\WObj:=cur_wobj;
       MoveL [[-592.2887, 2577.5223, -1399.0502],[ -0.01303312, 0.99143938, 0.12977022, -0.00614756], [1,0,-2,0], [9E+09, 9E+09, 9E+09, 9E+09, 9E+09, 9E+09]], cur_vel, cur_zone, cur_tool\WObj:=cur_wobj;
       MoveL [[-592.2887, 2577.5223, -1394.0502],[ -0.01303312, 0.99143938, 0.12977022, -0.00614756], [1,0,-2,0], [9E+09, 9E+09, 9E+09, 9E+09, 9E+09, 9E+09]], cur_vel, cur_zone, cur_tool\WObj:=cur_wobj;
       MoveL [[-592.2887, 2577.5223, -1389.0502],[ -0.01303312, 0.99143938, 0.12977022, -0.00614756], [1,0,-2,0], [9E+09, 9E+09, 9E+09, 9E+09, 9E+09, 9E+09]], cur_vel, cur_zone, cur_tool\WObj:=cur_wobj;
       MoveL [[-592.2887, 2577.5223, -1384.0502],[ -0.01303312, 0.99143938, 0.12977022, -0.00614756], [1,0,-2,0], [9E+09, 9E+09, 9E+09, 9E+09, 9E+09, 9E+09]], cur_vel, cur_zone, cur_tool\WObj:=cur_wobj;
       MoveL [[-592.2887, 2577.5223, -1379.0502],[ -0.01303312, 0.99143938, 0.12977022, -0.00614756], [1,0,-2,0], [9E+09, 9E+09, 9E+09, 9E+09, 9E+09, 9E+09]], cur_vel, cur_zone, cur_tool\WObj:=cur_wobj;
       MoveL [[-592.2887, 2577.5223, -1374.0502],[ -0.01303312, 0.99143938, 0.12977022, -0.00614756], [1,0,-2,0], [9E+09, 9E+09, 9E+09, 9E+09, 9E+09, 9E+09]], cur_vel, cur_zone, cur_tool\WObj:=cur_wobj;
       MoveL [[-592.2887, 2577.5223, -1369.0502],[ -0.01303312, 0.99143938, 0.12977022, -0.00614756], [1,0,-2,0], [9E+09, 9E+09, 9E+09, 9E+09, 9E+09, 9E+09]], cur_vel, cur_zone, cur_tool\WObj:=cur_wobj;
       MoveL [[-592.2887, 2577.5223, -1364.0502],[ -0.01303312, 0.99143938, 0.12977022, -0.00614756], [1,0,-2,0], [9E+09, 9E+09, 9E+09, 9E+09, 9E+09, 9E+09]], cur_vel, cur_zone, cur_tool\WObj:=cur_wobj;
       MoveL [[-592.2887, 2577.5223, -1359.0502],[ -0.01303312, 0.99143938, 0.12977022, -0.00614756], [1,0,-2,0], [9E+09, 9E+09, 9E+09, 9E+09, 9E+09, 9E+09]], cur_vel, cur_zone, cur_tool\WObj:=cur_wobj;
       MoveL [[-592.2887, 2577.5223, -1354.0502],[ -0.01303312, 0.99143938, 0.12977022, -0.00614756], [1,0,-2,0], [9E+09, 9E+09, 9E+09, 9E+09, 9E+09, 9E+09]], cur_vel, cur_zone, cur_tool\WObj:=cur_wobj;
       MoveL [[-592.2887, 2577.5223, -1349.0502],[ -0.01303312, 0.99143938, 0.12977022, -0.00614756], [1,0,-2,0], [9E+09, 9E+09, 9E+09, 9E+09, 9E+09, 9E+09]], cur_vel, cur_zone, cur_tool\WObj:=cur_wobj;
       MoveL [[-592.2887, 2577.5223, -1344.0502],[ -0.01303312, 0.99143938, 0.12977022, -0.00614756], [1,0,-2,0], [9E+09, 9E+09, 9E+09, 9E+09, 9E+09, 9E+09]], cur_vel, cur_zone, cur_tool\WObj:=cur_wobj;
       MoveL [[-592.2887, 2577.5223, -1339.0502],[ -0.01303312, 0.99143938, 0.12977022, -0.00614756], [1,0,-2,0], [9E+09, 9E+09, 9E+09, 9E+09, 9E+09, 9E+09]], cur_vel, cur_zone, cur_tool\WObj:=cur_wobj;
       MoveL [[-592.2887, 2577.5223, -1334.0502],[ -0.01303312, 0.99143938, 0.12977022, -0.00614756], [1,0,-2,0], [9E+09, 9E+09, 9E+09, 9E+09, 9E+09, 9E+09]], cur_vel, cur_zone, cur_tool\WObj:=cur_wobj;
       MoveL [[-592.2887, 2577.5223, -1329.0502],[ -0.01303312, 0.99143938, 0.12977022, -0.00614756], [1,0,-2,0], [9E+09, 9E+09, 9E+09, 9E+09, 9E+09, 9E+09]], cur_vel, cur_zone, cur_tool\WObj:=cur_wobj;
       MoveL [[-592.2887, 2577.5223, -1324.0502],[ -0.01303312, 0.99143938, 0.12977022, -0.00614756], [1,0,-2,0], [9E+09, 9E+09, 9E+09, 9E+09, 9E+09, 9E+09]], cur_vel, cur_zone, cur_tool\WObj:=cur_wobj;
       MoveL [[-592.2887, 2577.5223, -1319.0502],[ -0.01303312, 0.99143938, 0.12977022, -0.00614756], [1,0,-2,0], [9E+09, 9E+09, 9E+09, 9E+09, 9E+09, 9E+09]], cur_vel, cur_zone, cur_tool\WObj:=cur_wobj;
       MoveL [[-592.2887, 2577.5223, -1314.0502],[ -0.01303312, 0.99143938, 0.12977022, -0.00614756], [1,0,-2,0], [9E+09, 9E+09, 9E+09, 9E+09, 9E+09, 9E+09]], cur_vel, cur_zone, cur_tool\WObj:=cur_wobj;
       MoveL [[-592.2887, 2577.5223, -1309.0502],[ -0.01303312, 0.99143938, 0.12977022, -0.00614756], [1,0,-2,0], [9E+09, 9E+09, 9E+09, 9E+09, 9E+09, 9E+09]], cur_vel, cur_zone, cur_tool\WObj:=cur_wobj;
       MoveL [[-592.2887, 2577.5223, -1304.0502],[ -0.01303312, 0.99143938, 0.12977022, -0.00614756], [1,0,-2,0], [9E+09, 9E+09, 9E+09, 9E+09, 9E+09, 9E+09]], cur_vel, cur_zone, cur_tool\WObj:=cur_wobj;
       MoveL [[-592.2887, 2577.5223, -1299.0502],[ -0.01303312, 0.99143938, 0.12977022, -0.00614756], [1,0,-2,0], [9E+09, 9E+09, 9E+09, 9E+09, 9E+09, 9E+09]], cur_vel, cur_zone, cur_tool\WObj:=cur_wobj;
       MoveL [[-592.2887, 2577.5223, -1296.0502],[ -0.01303312, 0.99143938, 0.12977022, -0.00614756], [1,0,-2,0], [9E+09, 9E+09, 9E+09, 9E+09, 9E+09, 9E+09]], cur_vel, cur_zone, cur_tool\WObj:=cur_wobj;

   ENDPROC

   PROC brep2()

       ! Processing surface number: 1

       MoveL [[-87.4020, 2733.7607, -1240.2110],[ -0.01035688, 0.70971136, 0.70434927, -0.00972799], [1,0,-2,0], [9E+09, 9E+09, 9E+09, 9E+09, 9E+09, 9E+09]], cur_vel, cur_zone, cur_tool\WObj:=cur_wobj;
       MoveL [[-87.4020, 2733.7607, -1241.2110],[ -0.01035688, 0.70971136, 0.70434927, -0.00972799], [1,0,-2,0], [9E+09, 9E+09, 9E+09, 9E+09, 9E+09, 9E+09]], cur_vel, cur_zone, cur_tool\WObj:=cur_wobj;
       MoveL [[-87.4020, 2733.7607, -1246.2110],[ -0.01035688, 0.70971136, 0.70434927, -0.00972799], [1,0,-2,0], [9E+09, 9E+09, 9E+09, 9E+09, 9E+09, 9E+09]], cur_vel, cur_zone, cur_tool\WObj:=cur_wobj;
       MoveL [[-87.4020, 2733.7607, -1251.2110],[ -0.01035688, 0.70971136, 0.70434927, -0.00972799], [1,0,-2,0], [9E+09, 9E+09, 9E+09, 9E+09, 9E+09, 9E+09]], cur_vel, cur_zone, cur_tool\WObj:=cur_wobj;
       MoveL [[-87.4020, 2733.7607, -1256.2110],[ -0.01035688, 0.70971136, 0.70434927, -0.00972799], [1,0,-2,0], [9E+09, 9E+09, 9E+09, 9E+09, 9E+09, 9E+09]], cur_vel, cur_zone, cur_tool\WObj:=cur_wobj;
       MoveL [[-87.4020, 2733.7607, -1261.2110],[ -0.01035688, 0.70971136, 0.70434927, -0.00972799], [1,0,-2,0], [9E+09, 9E+09, 9E+09, 9E+09, 9E+09, 9E+09]], cur_vel, cur_zone, cur_tool\WObj:=cur_wobj;
       MoveL [[-87.4020, 2733.7607, -1266.2110],[ -0.01035688, 0.70971136, 0.70434927, -0.00972799], [1,0,-2,0], [9E+09, 9E+09, 9E+09, 9E+09, 9E+09, 9E+09]], cur_vel, cur_zone, cur_tool\WObj:=cur_wobj;
       MoveL [[-87.4020, 2733.7607, -1271.2110],[ -0.01035688, 0.70971136, 0.70434927, -0.00972799], [1,0,-2,0], [9E+09, 9E+09, 9E+09, 9E+09, 9E+09, 9E+09]], cur_vel, cur_zone, cur_tool\WObj:=cur_wobj;
       MoveL [[-87.4020, 2733.7607, -1276.2110],[ -0.01035688, 0.70971136, 0.70434927, -0.00972799], [1,0,-2,0], [9E+09, 9E+09, 9E+09, 9E+09, 9E+09, 9E+09]], cur_vel, cur_zone, cur_tool\WObj:=cur_wobj;
       MoveL [[-87.4020, 2733.7607, -1281.2110],[ -0.01035688, 0.70971136, 0.70434927, -0.00972799], [1,0,-2,0], [9E+09, 9E+09, 9E+09, 9E+09, 9E+09, 9E+09]], cur_vel, cur_zone, cur_tool\WObj:=cur_wobj;
       MoveL [[-87.4020, 2733.7607, -1286.2110],[ -0.01035688, 0.70971136, 0.70434927, -0.00972799], [1,0,-2,0], [9E+09, 9E+09, 9E+09, 9E+09, 9E+09, 9E+09]], cur_vel, cur_zone, cur_tool\WObj:=cur_wobj;
       MoveL [[-87.4020, 2733.7607, -1291.2110],[ -0.01035688, 0.70971136, 0.70434927, -0.00972799], [1,0,-2,0], [9E+09, 9E+09, 9E+09, 9E+09, 9E+09, 9E+09]], cur_vel, cur_zone, cur_tool\WObj:=cur_wobj;
       MoveL [[-87.4020, 2733.7607, -1296.2110],[ -0.01035688, 0.70971136, 0.70434927, -0.00972799], [1,0,-2,0], [9E+09, 9E+09, 9E+09, 9E+09, 9E+09, 9E+09]], cur_vel, cur_zone, cur_tool\WObj:=cur_wobj;
       MoveL [[-87.4020, 2733.7607, -1301.2110],[ -0.01035688, 0.70971136, 0.70434927, -0.00972799], [1,0,-2,0], [9E+09, 9E+09, 9E+09, 9E+09, 9E+09, 9E+09]], cur_vel, cur_zone, cur_tool\WObj:=cur_wobj;
       MoveL [[-87.4020, 2733.7607, -1306.2110],[ -0.01035688, 0.70971136, 0.70434927, -0.00972799], [1,0,-2,0], [9E+09, 9E+09, 9E+09, 9E+09, 9E+09, 9E+09]], cur_vel, cur_zone, cur_tool\WObj:=cur_wobj;
       MoveL [[-87.4020, 2733.7607, -1311.2110],[ -0.01035688, 0.70971136, 0.70434927, -0.00972799], [1,0,-2,0], [9E+09, 9E+09, 9E+09, 9E+09, 9E+09, 9E+09]], cur_vel, cur_zone, cur_tool\WObj:=cur_wobj;
       MoveL [[-87.4020, 2733.7607, -1316.2110],[ -0.01035688, 0.70971136, 0.70434927, -0.00972799], [1,0,-2,0], [9E+09, 9E+09, 9E+09, 9E+09, 9E+09, 9E+09]], cur_vel, cur_zone, cur_tool\WObj:=cur_wobj;
       MoveL [[-87.4020, 2733.7607, -1321.2110],[ -0.01035688, 0.70971136, 0.70434927, -0.00972799], [1,0,-2,0], [9E+09, 9E+09, 9E+09, 9E+09, 9E+09, 9E+09]], cur_vel, cur_zone, cur_tool\WObj:=cur_wobj;
       MoveL [[-87.4020, 2733.7607, -1326.2110],[ -0.01035688, 0.70971136, 0.70434927, -0.00972799], [1,0,-2,0], [9E+09, 9E+09, 9E+09, 9E+09, 9E+09, 9E+09]], cur_vel, cur_zone, cur_tool\WObj:=cur_wobj;
       MoveL [[-87.4020, 2733.7607, -1331.2110],[ -0.01035688, 0.70971136, 0.70434927, -0.00972799], [1,0,-2,0], [9E+09, 9E+09, 9E+09, 9E+09, 9E+09, 9E+09]], cur_vel, cur_zone, cur_tool\WObj:=cur_wobj;
       MoveL [[-87.4020, 2733.7607, -1336.2110],[ -0.01035688, 0.70971136, 0.70434927, -0.00972799], [1,0,-2,0], [9E+09, 9E+09, 9E+09, 9E+09, 9E+09, 9E+09]], cur_vel, cur_zone, cur_tool\WObj:=cur_wobj;
       MoveL [[-87.4020, 2733.7607, -1341.2110],[ -0.01035688, 0.70971136, 0.70434927, -0.00972799], [1,0,-2,0], [9E+09, 9E+09, 9E+09, 9E+09, 9E+09, 9E+09]], cur_vel, cur_zone, cur_tool\WObj:=cur_wobj;
       MoveL [[-87.4020, 2733.7607, -1346.2110],[ -0.01035688, 0.70971136, 0.70434927, -0.00972799], [1,0,-2,0], [9E+09, 9E+09, 9E+09, 9E+09, 9E+09, 9E+09]], cur_vel, cur_zone, cur_tool\WObj:=cur_wobj;
       MoveL [[-87.4020, 2733.7607, -1351.2110],[ -0.01035688, 0.70971136, 0.70434927, -0.00972799], [1,0,-2,0], [9E+09, 9E+09, 9E+09, 9E+09, 9E+09, 9E+09]], cur_vel, cur_zone, cur_tool\WObj:=cur_wobj;
       MoveL [[-87.4020, 2733.7607, -1356.2110],[ -0.01035688, 0.70971136, 0.70434927, -0.00972799], [1,0,-2,0], [9E+09, 9E+09, 9E+09, 9E+09, 9E+09, 9E+09]], cur_vel, cur_zone, cur_tool\WObj:=cur_wobj;
       MoveL [[-87.4020, 2733.7607, -1361.2110],[ -0.01035688, 0.70971136, 0.70434927, -0.00972799], [1,0,-2,0], [9E+09, 9E+09, 9E+09, 9E+09, 9E+09, 9E+09]], cur_vel, cur_zone, cur_tool\WObj:=cur_wobj;
       MoveL [[-87.4020, 2733.7607, -1366.2110],[ -0.01035688, 0.70971136, 0.70434927, -0.00972799], [1,0,-2,0], [9E+09, 9E+09, 9E+09, 9E+09, 9E+09, 9E+09]], cur_vel, cur_zone, cur_tool\WObj:=cur_wobj;
       MoveL [[-87.4020, 2733.7607, -1371.2110],[ -0.01035688, 0.70971136, 0.70434927, -0.00972799], [1,0,-2,0], [9E+09, 9E+09, 9E+09, 9E+09, 9E+09, 9E+09]], cur_vel, cur_zone, cur_tool\WObj:=cur_wobj;
       MoveL [[-87.4020, 2733.7607, -1376.2110],[ -0.01035688, 0.70971136, 0.70434927, -0.00972799], [1,0,-2,0], [9E+09, 9E+09, 9E+09, 9E+09, 9E+09, 9E+09]], cur_vel, cur_zone, cur_tool\WObj:=cur_wobj;
       MoveL [[-87.4020, 2733.7607, -1381.2110],[ -0.01035688, 0.70971136, 0.70434927, -0.00972799], [1,0,-2,0], [9E+09, 9E+09, 9E+09, 9E+09, 9E+09, 9E+09]], cur_vel, cur_zone, cur_tool\WObj:=cur_wobj;
       MoveL [[-87.4020, 2733.7607, -1386.2110],[ -0.01035688, 0.70971136, 0.70434927, -0.00972799], [1,0,-2,0], [9E+09, 9E+09, 9E+09, 9E+09, 9E+09, 9E+09]], cur_vel, cur_zone, cur_tool\WObj:=cur_wobj;
       MoveL [[-87.4020, 2733.7607, -1391.2110],[ -0.01035688, 0.70971136, 0.70434927, -0.00972799], [1,0,-2,0], [9E+09, 9E+09, 9E+09, 9E+09, 9E+09, 9E+09]], cur_vel, cur_zone, cur_tool\WObj:=cur_wobj;
       MoveL [[-87.4020, 2733.7607, -1396.2110],[ -0.01035688, 0.70971136, 0.70434927, -0.00972799], [1,0,-2,0], [9E+09, 9E+09, 9E+09, 9E+09, 9E+09, 9E+09]], cur_vel, cur_zone, cur_tool\WObj:=cur_wobj;
       MoveL [[-87.4020, 2733.7607, -1401.2110],[ -0.01035688, 0.70971136, 0.70434927, -0.00972799], [1,0,-2,0], [9E+09, 9E+09, 9E+09, 9E+09, 9E+09, 9E+09]], cur_vel, cur_zone, cur_tool\WObj:=cur_wobj;
       MoveL [[-87.4020, 2733.7607, -1406.2110],[ -0.01035688, 0.70971136, 0.70434927, -0.00972799], [1,0,-2,0], [9E+09, 9E+09, 9E+09, 9E+09, 9E+09, 9E+09]], cur_vel, cur_zone, cur_tool\WObj:=cur_wobj;
       MoveL [[-87.4020, 2733.7607, -1411.2110],[ -0.01035688, 0.70971136, 0.70434927, -0.00972799], [1,0,-2,0], [9E+09, 9E+09, 9E+09, 9E+09, 9E+09, 9E+09]], cur_vel, cur_zone, cur_tool\WObj:=cur_wobj;
       MoveL [[-87.4020, 2733.7607, -1416.2110],[ -0.01035688, 0.70971136, 0.70434927, -0.00972799], [1,0,-2,0], [9E+09, 9E+09, 9E+09, 9E+09, 9E+09, 9E+09]], cur_vel, cur_zone, cur_tool\WObj:=cur_wobj;
       MoveL [[-87.4020, 2733.7607, -1421.2110],[ -0.01035688, 0.70971136, 0.70434927, -0.00972799], [1,0,-2,0], [9E+09, 9E+09, 9E+09, 9E+09, 9E+09, 9E+09]], cur_vel, cur_zone, cur_tool\WObj:=cur_wobj;
       MoveL [[-87.4020, 2733.7607, -1426.2110],[ -0.01035688, 0.70971136, 0.70434927, -0.00972799], [1,0,-2,0], [9E+09, 9E+09, 9E+09, 9E+09, 9E+09, 9E+09]], cur_vel, cur_zone, cur_tool\WObj:=cur_wobj;
       MoveL [[-87.4020, 2733.7607, -1431.2110],[ -0.01035688, 0.70971136, 0.70434927, -0.00972799], [1,0,-2,0], [9E+09, 9E+09, 9E+09, 9E+09, 9E+09, 9E+09]], cur_vel, cur_zone, cur_tool\WObj:=cur_wobj;
       MoveL [[-87.4020, 2733.7607, -1436.2110],[ -0.01035688, 0.70971136, 0.70434927, -0.00972799], [1,0,-2,0], [9E+09, 9E+09, 9E+09, 9E+09, 9E+09, 9E+09]], cur_vel, cur_zone, cur_tool\WObj:=cur_wobj;
       MoveL [[-87.4020, 2733.7607, -1441.2110],[ -0.01035688, 0.70971136, 0.70434927, -0.00972799], [1,0,-2,0], [9E+09, 9E+09, 9E+09, 9E+09, 9E+09, 9E+09]], cur_vel, cur_zone, cur_tool\WObj:=cur_wobj;
       MoveL [[-87.4020, 2733.7607, -1446.2110],[ -0.01035688, 0.70971136, 0.70434927, -0.00972799], [1,0,-2,0], [9E+09, 9E+09, 9E+09, 9E+09, 9E+09, 9E+09]], cur_vel, cur_zone, cur_tool\WObj:=cur_wobj;
